!!!!SEGMENT: pl-wtm--r-1544--008_stefani-jozef--msza-no-9-agnus-dei.krn
!!!cenid: 18xx:1800
!!!COM: Stefani, Józef
!!!COM-rismID: pe30024097
!!!CDT: 1800/04/16-1876/03/19
!!!CNT: Polish
!!!OPR: Msza No 9
!!!OTL: Agnus Dei
!!!OMV: 008
!!!PDT: 1846
!!!AGN: Sacred; Mass
!!!SMS-siglum: PL-Wtm
!!!SMS-shelfmark: R 1544
!!!SMS-shelfwork: 001-008 M
!!!SMS-variant:
!!!SMS-altvar:
!!!NIFC-rismSourceID: 1001120493
!!!NIFC-rismChildID: 1001120493
!!!NIFC-islandoraID: pl-wtm:26509
!!!URL-pdf-islandora: https://repozytorium.nifc.pl/islandora/object/pl-wtm%3A26509/datastream/PDF/view
!!!URL-scan: https://polish.musicsources.pl/pl/lokalizacje/galeria/rekopisy/6345 @EN{Scan on Polish Music Sources Website} @PL{Skany w portalu Dziedzictwo Muzyki Polskiej w otwartym dostępie}
!!!ONB-nifc: UWAGA: części Mszy: 1. Kyrie, 2. Gloria, 3. Graduale, 4. Credo, 5. Offertorium, 6. Sanctus, 7. Benedictus, 8. Agnus Dei, 9. Dona nobis
!!!AIN: 1 bass 1 cello 1 clars 1 cor 1 fagot 1 flt 1 oboe 2 soprn 1 tenor 1 timpa 1 tromp 1 viola 1 violn
!!!key: C
**kern	**dynam	**kern	**dynam	**kern	**text	**dynam	**kern	**text	**dynam	**kern	**text	**dynam	**kern	**text	**text	**dynam	**kern	**dynam	**kern	**kern	**dynam	**kern	**dynam	**kern	**dynam	**kern	**dynam	**kern	**dynam	**kern	**dynam	**kern	**dynam
*part14	*part14	*part13	*part13	*part12	*part12	*part12	*part11	*part11	*part11	*part10	*part10	*part10	*part9	*part9	*part9	*part9	*part8	*part8	*part7	*part7	*part7	*part6	*part6	*part5	*part5	*part4	*part4	*part3	*part3	*part2	*part2	*part1	*part1
*staff15	*	*staff14	*	*staff13	*staff13	*	*staff12	*staff12	*	*staff11	*staff11	*	*staff10	*staff10	*staff10	*	*staff9	*	*staff8	*staff7	*	*staff6	*	*staff5	*	*staff4	*	*staff3	*	*staff2	*	*staff1	*
*I"Tympani	*	*I"Violoncelli et CtBasſi	*	*I"Basſo	*	*	*I"Tenore	*	*	*I"Soprano 2ᵒ.	*	*	*I"Soprano 1ᵒ.	*	*	*	*I"Viole	*	*I""Violini	*I""Violini	*	*I"Trombe	*	*I"Fagotti	*	*I"Corni in C	*	*I"Clarinetti	*	*I"Oboe	*	*I"Flauto	*
*	*	*	*	*group2	*group2	*group2	*group2	*group2	*group2	*group2	*group2	*group2	*group2	*group2	*group2	*group2	*	*	*group1	*group1	*group1	*	*	*	*	*	*	*	*	*	*	*	*
*Itimpa	*	*Icello	*	*Ibass	*	*	*Itenor	*	*	*Isoprn	*	*	*Isoprn	*	*	*	*Iviola	*	*Ivioln	*Ivioln	*	*Itromp	*	*Ifagot	*	*Icor	*	*Iclars	*	*Ioboe	*	*Iflt	*
*ICidio	*	*ICstr	*	*ICvox	*	*	*ICvox	*	*	*ICvox	*	*	*ICvox	*	*	*	*ICstr	*	*ICstr	*ICstr	*	*ICbras	*	*ICww	*	*ICbras	*	*ICww	*	*ICww	*	*ICww	*
*>[A,B,B1,B,B2,C]	*>[A,B,B1,B,B2,C]	*>[A,B,B1,B,B2,C]	*>[A,B,B1,B,B2,C]	*>[A,B,B1,B,B2,C]	*>[A,B,B1,B,B2,C]	*>[A,B,B1,B,B2,C]	*>[A,B,B1,B,B2,C]	*>[A,B,B1,B,B2,C]	*>[A,B,B1,B,B2,C]	*>[A,B,B1,B,B2,C]	*>[A,B,B1,B,B2,C]	*>[A,B,B1,B,B2,C]	*>[A,B,B1,B,B2,C]	*>[A,B,B1,B,B2,C]	*>[A,B,B1,B,B2,C]	*>[A,B,B1,B,B2,C]	*>[A,B,B1,B,B2,C]	*>[A,B,B1,B,B2,C]	*>[A,B,B1,B,B2,C]	*>[A,B,B1,B,B2,C]	*>[A,B,B1,B,B2,C]	*>[A,B,B1,B,B2,C]	*>[A,B,B1,B,B2,C]	*>[A,B,B1,B,B2,C]	*>[A,B,B1,B,B2,C]	*>[A,B,B1,B,B2,C]	*>[A,B,B1,B,B2,C]	*>[A,B,B1,B,B2,C]	*>[A,B,B1,B,B2,C]	*>[A,B,B1,B,B2,C]	*>[A,B,B1,B,B2,C]	*>[A,B,B1,B,B2,C]	*>[A,B,B1,B,B2,C]
*stria1	*	*	*	*	*	*	*	*	*	*	*	*	*	*	*	*	*	*	*	*	*	*	*	*	*	*	*	*	*	*	*	*	*
*clefF4	*	*clefF4	*	*clefF4	*	*	*clefC4	*	*	*clefG2	*	*	*clefG2	*	*	*	*clefC3	*	*clefG2	*clefG2	*	*clefG2	*	*clefF4	*	*clefG2	*	*clefG2	*	*clefG2	*	*clefG2	*
*k[]	*	*k[]	*	*k[]	*	*	*k[]	*	*	*k[]	*	*	*k[]	*	*	*	*k[]	*	*k[]	*k[]	*	*k[]	*	*k[]	*	*k[]	*	*k[]	*	*k[]	*	*k[]	*
*C:	*	*C:	*	*C:	*	*	*C:	*	*	*C:	*	*	*C:	*	*	*	*C:	*	*C:	*C:	*	*C:	*	*C:	*	*C:	*	*C:	*	*C:	*	*C:	*
*M2/4	*	*M2/4	*	*M2/4	*	*	*M2/4	*	*	*M2/4	*	*	*M2/4	*	*	*	*M2/4	*	*M2/4	*M2/4	*	*M2/4	*	*M2/4	*	*M2/4	*	*M2/4	*	*M2/4	*	*M2/4	*
=1	=1	=1	=1	=1	=1	=1	=1	=1	=1	=1	=1	=1	=1	=1	=1	=1	=1	=1	=1	=1	=1	=1	=1	=1	=1	=1	=1	=1	=1	=1	=1	=1	=1
*>A	*>A	*>A	*>A	*>A	*>A	*>A	*>A	*>A	*>A	*>A	*>A	*>A	*>A	*>A	*>A	*>A	*>A	*>A	*>A	*>A	*>A	*>A	*>A	*>A	*>A	*>A	*>A	*>A	*>A	*>A	*>A	*>A	*>A
*	*	*	*	*	*	*	*	*	*	*	*	*	*	*	*	*	*	*	*	*	*	*	*	*	*	*	*	*^	*	*	*	*	*
*	*	*	*	*	*	*	*	*	*	*	*	*	*	*	*	*	*	*	*	*	*^	*	*	*	*	*	*	*	*	*	*	*	*	*
*2\right	*	*2\right	*	*	*	*	*	*	*	*	*	*	*	*	*	*	*2\right	*	*	*	*	*	*	*	*	*	*2\right	*	*2\right	*2\right	*	*2\right	*	*2\right	*
!LO:TX:a:t=P:problem:all\right	!	!LO:TX:a:t=P:problem:all\right	!	!LO:TX:a:t=P:problem:all\right	!	!	!LO:TX:a:t=P:problem:all\right	!	!	!LO:TX:a:t=P:problem:all\right	!	!	!LO:TX:a:t=P:problem:all\right	!	!	!	!LO:TX:a:t=P:problem:all\right	!	!LO:TX:a:t=P:problem:all\right	!LO:TX:a:t=P:problem:all\right	!LO:DY:rj	!LO:DY:rj:b=2	!LO:TX:a:t=P:problem:all\right	!	!LO:TX:a:t=P:problem:all\right	!	!LO:TX:a:t=P:problem:all\right	!	!LO:TX:a:t=P:problem:all\right	!	!	!LO:TX:a:t=P:problem:all\right	!	!LO:TX:a:t=P:problem:najczęściej \right oraz \middle, zdarza się \left	!
!LO:SIC:s=2GGTT\	!LO:HP:a	!LO:TX:t=P:problem:mixed beam	!LO:DY:rj	!	!	!	!	!	!	!	!	!	!	!	!	!	!	!	!	!	!	!	!	!	!	!	!	!LO:DY:rj	!	!	!	!	!LO:DY:rj	!LO:TX:a:t=Andante:problem:wpisane ołówkiem	!LO:DY:rj
!	!	!	!	!	!	!	!	!	!	!	!	!	!	!	!	!	!	!	!	!	!	!	!	!	!	!	!	!	!	!	!	!	!	!LO:TX:a:t=P:problem:różne system decoration na różnych stronach; system decoration nie działa prawidłowo	!
2Rett\	p < [[	16GG/LL	p	2r	.	.	2r	.	.	2r	.	.	2r	.	.	.	16d\LL	.	16g/LL 16B/	16g/LL	p	p	2r	.	2r	.	2g/ 2G/	p < [[	4dd/ 4b/	4b\	p	(4gg\	p <	(4gg\	p
!	!	!	!LO:HP:a	!	!	!	!	!	!	!	!	!	!	!	!	!	!	!	!	!	!	!LO:HP:b=2	!	!	!	!	!	!	!	!	!	!	!	!	!
.	.	16G\	<	.	.	.	.	.	.	.	.	.	.	.	.	.	16d\	<	16g/ 16B/	16g/	.	<	.	.	.	.	.	.	.	.	.	.	.	.	.
.	.	16G\	.	.	.	.	.	.	.	.	.	.	.	.	.	.	16d\	.	16g/ 16B/	16g/	<	.	.	.	.	.	.	.	.	.	.	.	.	.	.
.	.	16G\JJ	.	.	.	.	.	.	.	.	.	.	.	.	.	.	16d\JJ	.	16g/JJ 16B/	16g/JJ	.	.	.	.	.	.	.	.	.	.	.	.	.	.	.
!	!	!LO:TX:t=P:problem:mixed beam	!	!	!	!	!	!	!	!	!	!	!	!	!	!	!	!	!	!	!	!	!	!	!	!	!	!	!	!	!	!	!	!	!
.	.	16GG/LL	.	.	.	.	.	.	.	.	.	.	.	.	.	.	16e-X\LL 16c\	.	16f#X/LL 16c/	16a/LL	.	.	.	.	.	.	.	.	8ee-X/L 8cc/	8cc\L	.	8ff#X\L	.	8aa\L	<
.	.	16G\	.	.	.	.	.	.	.	.	.	.	.	.	.	.	16e-\ 16c\	.	16f#/ 16c/	16a/	.	.	.	.	.	.	.	.	.	.	.	.	.	.	.
.	.	16GG/	.	.	.	.	.	.	.	.	.	.	.	.	.	.	16d\ 16G\	.	16fn/ 16d/	16b/	.	.	.	.	.	.	.	.	8dd/J	8g\J	.	8ffn\J)	[	8bb\J	[[
.	.	16G\JJ	[[	.	.	.	.	.	.	.	.	.	.	.	.	.	16d\JJ 16G\	[[	16f/JJ 16d/	16b/JJ	.	[[	.	.	.	.	.	.	.	.	.	.	.	.	.
=2	=2	=2	=2	=2	=2	=2	=2	=2	=2	=2	=2	=2	=2	=2	=2	=2	=2	=2	=2	=2	=2	=2	=2	=2	=2	=2	=2	=2	=2	=2	=2	=2	=2	=2	=2
*	*	*	*	*	*	*	*	*	*	*	*	*	*	*	*	*	*	*	*	*	*	*	*2\right	*	*2\right	*	*	*	*	*	*	*	*	*	*
!LO:SIC:s=8.C/L	!LO:DY:rj:a	!LO:TX:t=P:problem:mixed beam	!LO:DY:a:rj	!	!	!	!	!	!	!	!	!	!	!	!	!	!	!LO:DY:rj	!	!	!LO:DY:b=2	!	!	!	!	!LO:DY:rj	!	!LO:DY:rj	!	!	!	!	!LO:DY:rj	!	!LO:DY:rj
8.Re/L	f	8.AA-X/L	f	2r	.	.	2r	.	.	2r	.	.	2r	.	.	.	8.c\L	f	8.e-X/L	8.cc/L	[ f	f	8.cc/L 8.e-X/	.	8.A-X\L 8.AA-X\	f	8.cc/L 8.c/	f	8.cc/L	8.cc\L	f	8.ee-X\L	f	8.ccc\L)	f
!LO:SIC:s=16C/Jk	!	!	!	!	!	!	!	!	!	!	!	!	!	!	!	!	!	!	!	!	!	!	!	!	!	!	!	!	!	!	!	!	!	!	!
16Re/Jk	.	16A-X\Jk	.	.	.	.	.	.	.	.	.	.	.	.	.	.	16c\Jk	.	16e-/Jk	16cc/Jk	.	.	16cc/Jk 16e-/	.	16A-\Jk 16AA-\	.	16cc/Jk 16c/	.	16cc/Jk	16cc\Jk	>	16ee-\Jk	>	16ccc\Jk	.
!LO:SIC:s=8C/L	!	!	!	!	!	!	!	!	!	!	!	!	!	!	!	!	!	!	!	!	!	!	!	!	!	!	!	!	!	!	!	!	!	!	!
8Re/L	.	8A-\L	.	.	.	.	.	.	.	.	.	.	.	.	.	.	8c\L	.	8e-/L	8cc/L	.	.	8cc/L 8e-/	.	8A-\L 8AA-\	.	8cc/L 8c/	.	8cc/L	8cc\L	.	8ee-\L	.	8ccc\L	>
!LO:SIC:s=8C/J	!	!	!	!	!	!	!	!	!	!	!	!	!	!	!	!	!	!	!	!	!	!	!	!	!	!	!	!	!	!	!	!	!	!	!
8Re/J	.	8A-\J	.	.	.	.	.	.	.	.	.	.	.	.	.	.	8c\J	.	8d/J	8f#X/J	.	.	8cc/J 8d/	.	8A-\J 8AA-\	.	8cc/J 8c/	.	[8cc/J	(8cc\J 8f#X\	]	8dd\J	]	8ff#X\J	]
=3	=3	=3	=3	=3	=3	=3	=3	=3	=3	=3	=3	=3	=3	=3	=3	=3	=3	=3	=3	=3	=3	=3	=3	=3	=3	=3	=3	=3	=3	=3	=3	=3	=3	=3	=3
*	*	*	*	*	*	*	*	*	*	*	*	*	*	*	*	*	*	*	*	*	*	*	*^	*	*	*	*	*	*	*	*	*	*	*	*
*	*	*	*	*	*	*	*	*	*	*	*	*	*	*	*	*	*	*	*	*	*	*	*	*^	*	*	*	*	*	*	*	*	*	*	*	*
*	*^	*	*	*	*	*	*	*	*	*	*	*	*	*	*	*	*	*	*	*	*	*	*	*	*	*	*	*	*	*	*	*	*	*	*	*	*
*	*	*	*	*	*	*	*	*	*	*	*	*	*	*	*	*	*	*	*	*	*	*	*	*	*	*cue	*	*	*	*	*	*	*	*	*	*	*	*
*	*	*	*tremolo	*	*	*	*	*	*	*	*	*	*	*	*	*	*	*tremolo	*	*tremolo	*tremolo	*	*	*	*	*	*	*	*	*	*	*	*	*	*	*	*	*
!LO:SIC:s=2GGT\	!LO:HP:a	!LO:HP:t=decresce	!	!LO:HP:a	!	!	!	!	!	!	!	!	!	!	!	!	!	!	!	!	!	!	!LO:HP:b=2	!	!	!	!	!	!	!	!	!	!LO:TX:a:t=P:problem:takt po poprawkach głównego skryptora; po poprawkach także t. 15, 30, 39, 61	!	!	!	!	!
2Rett\	> ]]	>	16G\LL	>	2r	.	.	2r	.	.	2r	.	.	2r	.	.	.	16c\LL	.	16d/LL	16g/LL	>	>	4cc/	2d\	4d/	.	2G\ 2GG\	>]	2g/ 2G/	>]	4ryy	4cc\] [>4g\)	>	16.dd/LL|	.	16.gg\LL	>
.	.	.	16G\	.	.	.	.	.	.	.	.	.	.	.	.	.	.	16c\	.	16d/	16g/	.	.	.	.	.	.	.	.	.	.	.	.	.	.	.	.	.
.	.	.	.	.	.	.	.	.	.	.	.	.	.	.	.	.	.	.	.	.	.	.	.	.	.	.	.	.	.	.	.	.	.	.	(32g/JJk	.	(32gg\JJk	.
.	.	.	16G\	.	.	.	.	.	.	.	.	.	.	.	.	.	.	16c\	.	16d/	16g/	.	.	.	.	.	.	.	.	.	.	.	.	.	8gg/)	.	8ggg\)	.
.	.	.	16G\JJ	.	.	.	.	.	.	.	.	.	.	.	.	.	.	16c\JJ	.	16d/JJ	16g/JJ	.	.	.	.	.	.	.	.	.	.	.	.	.	.	.	.	.
*	*	*	*	*	*	*	*	*	*	*	*	*	*	*	*	*	*	*	*	*	*	*	*	*	*	*Xcue	*	*	*	*	*	*	*	*	*	*	*	*
.	.	.	16GG/LL	.	.	.	.	.	.	.	.	.	.	.	.	.	.	16B\LL	.	16d/LL	16g/LL	]	]	4b/	.	4ryy	.	.	.	.	.	4ryy	4b\ 4g\]	]	16.r	.	16.r	.
.	.	.	16GG/	.	.	.	.	.	.	.	.	.	.	.	.	.	.	16B\	.	16d/	16g/	.	.	.	.	.	.	.	.	.	.	.	.	.	.	.	.	.
!	!	!	!	!	!	!	!	!	!	!	!	!	!	!	!	!	!	!	!	!	!	!	!	!	!	!	!	!	!	!	!	!	!	!	!LO:N:vis=16	!	!LO:N:vis=16	!
.	.	.	.	.	.	.	.	.	.	.	.	.	.	.	.	.	.	.	.	.	.	.	.	.	.	.	.	.	.	.	.	.	.	.	(32g/KKL	.	(32gg\KKL	]
.	.	.	16GG/	.	.	.	.	.	.	.	.	.	.	.	.	.	.	16B\	.	16d/	16g/	.	.	.	.	.	.	.	.	.	.	.	.	.	8gg/J)	.	8ggg\J)	.
.	.	.	16GG/JJ	]	.	.	.	.	.	.	.	.	.	.	.	.	.	16B\JJ	.	16d/JJ	16g/JJ	.	.	.	.	.	.	.	.	.	.	.	.	.	.	.	.	.
*	*	*	*Xtremolo	*	*	*	*	*	*	*	*	*	*	*	*	*	*	*Xtremolo	*	*Xtremolo	*Xtremolo	*	*	*	*	*	*	*	*	*	*	*	*	*	*	*	*	*
*	*	*	*	*	*	*	*	*	*	*	*	*	*	*	*	*	*	*	*	*	*	*v	*v	*	*	*	*	*	*	*	*	*	*	*	*	*	*	*
*	*	*	*	*	*	*	*	*	*	*	*	*	*	*	*	*	*	*	*	*	*	*	*	*v	*v	*	*	*	*	*	*	*	*	*	*	*	*
*	*	*	*	*	*	*	*	*	*	*	*	*	*	*	*	*	*	*	*	*	*	*	*v	*v	*	*	*	*	*	*v	*v	*	*	*	*	*
=4!|:	=4!|:	=4!|:	=4!|:	=4!|:	=4!|:	=4!|:	=4!|:	=4!|:	=4!|:	=4!|:	=4!|:	=4!|:	=4!|:	=4!|:	=4!|:	=4!|:	=4!|:	=4!|:	=4!|:	=4!|:	=4!|:	=4!|:	=4!|:	=4!|:	=4!|:	=4!|:	=4!|:	=4!|:	=4!|:	=4!|:	=4!|:	=4!|:	=4!|:	=4!|:
*>B	*>B	*>B	*>B	*>B	*>B	*>B	*>B	*>B	*>B	*>B	*>B	*>B	*>B	*>B	*>B	*>B	*>B	*>B	*>B	*>B	*>B	*>B	*>B	*>B	*>B	*>B	*>B	*>B	*>B	*>B	*>B	*>B	*>B	*>B
*	*	*	*	*	*	*	*	*	*	*	*	*	*	*	*verse1	*verse2	*	*	*	*	*	*	*	*	*	*	*	*	*	*	*	*	*	*
!LO:SIC:s=8C/	!	!LO:DY:rj:t=p.	!LO:TX:a:t=P:problem:takt po poprawkach głównego skryptora; po poprawkach także t. 5-13, 15, 38, 63	!LO:DY:rj	!	!	!	!	!	!	!	!	!	!	!	!	!	!LO:TX:a:t=P:problem:takt po poprawkach głównego skryptora; po poprawkach także t. 5-12, 15, 22, 23, 26	!	!	!	!	!	!	!	!	!LO:TX:a:t=P:problem:takt po poprawkach głównego skryptora; po poprawkach także t. 10, 29, 30, 43	!LO:DY:rj	!	!LO:DY:rj	!	!	!	!
8Re/	pp	p	8C/	p	4C/	.	.	4c\	.	.	4e/	.	.	4g/	1.) Dzie-	2.) Pa-	.	16r	.	16r	16r	.	2r	.	2r	.	[4g/ [4c/	p	(4g/ (4e/	p	2r	.	2r	.
!	!	!	!	!	!	!	!	!	!	!	!	!	!	!	!	!	!	!	!	!	!	!LO:DY:rj	!	!	!	!	!	!	!	!	!	!	!	!
.	.	.	.	.	.	.	.	.	.	.	.	.	.	.	.	.	.	16c\LL	.	16e/LL	16g/LL	p	.	.	.	.	.	.	.	.	.	.	.	.
8r	.	.	8r	.	.	.	.	.	.	.	.	.	.	.	.	.	.	16c\	.	16e/	16g/	.	.	.	.	.	.	.	.	.	.	.	.	.
.	.	.	.	.	.	.	.	.	.	.	.	.	.	.	.	.	.	16c\JJ	.	16e/JJ	16g/JJ	.	.	.	.	.	.	.	.	.	.	.	.	.
!	!	!	!LO:TX:a:t=P:problem:16C/LL i 16C/JJ wyglądają, jakby miały oznaczenie tremolo	!	!	!	!	!	!	!	!	!	!	!	!	!	!	!	!	!	!	!	!	!	!	!	!	!	!	!	!	!	!	!
4r	.	.	16C/LL	.	8C/	.	.	8G/	.	.	8c/	.	.	8e/	-ci	-nem	.	16r	.	16r	16r	.	.	.	.	.	8g/]L 8c/]	.	8e/L 8c/))	.	.	.	.	.
.	.	.	16r	.	.	.	.	.	.	.	.	.	.	.	.	.	.	16G/LL	.	16c/LL	16e/LL	.	.	.	.	.	.	.	.	.	.	.	.	.
.	.	.	16C/JJ	.	8C/	.	.	8G/	.	.	8e/	.	.	8cc\	nie-	Ty	.	16r	.	16r	16r	.	.	.	.	.	8g/J 8c/	.	8cc/J|> 8e/|>	.	.	.	.	.
.	.	.	16r	.	.	.	.	.	.	.	.	.	.	.	.	.	.	16G/JJ	.	16e/JJ	16cc/JJ	.	.	.	.	.	.	.	.	.	.	.	.	.
*	*v	*v	*	*	*	*	*	*	*	*	*	*	*	*	*	*	*	*	*	*	*	*	*	*	*	*	*	*	*	*	*	*	*	*
!!LO:PB:g=original
=5	=5	=5	=5	=5	=5	=5	=5	=5	=5	=5	=5	=5	=5	=5	=5	=5	=5	=5	=5	=5	=5	=5	=5	=5	=5	=5	=5	=5	=5	=5	=5	=5	=5
*	*	*	*	*	*	*	*	*	*	*	*	*	*	*	*	*	*	*	*	*	*	*	*	*	*	*	*	*^	*	*	*	*	*
!	!	!	!	!	!	!	!	!	!	!	!	!	!	!	!	!	!	!	!LO:TX:a:t=P:problem:takt po poprawkach głównego skryptora; po poprawkach także t. 6, 7, 15, 22	!	!	!	!	!	!	!	!	!	!	!	!	!	!	!
2r	.	8C/	.	4C/	.	.	4G/	.	.	4e/	.	.	4cc\	-god-	na-	.	16r	.	16r	16r	.	2r	.	2r	.	2g/ 2c/	.	(4cc/	2e\	.	2r	.	2r	.
.	.	.	.	.	.	.	.	.	.	.	.	.	.	.	.	.	16G/LL	.	16e/LL	16cc\LL	.	.	.	.	.	.	.	.	.	.	.	.	.	.
.	.	8r	.	.	.	.	.	.	.	.	.	.	.	.	.	.	16G/	.	16e/	16cc\	.	.	.	.	.	.	.	.	.	.	.	.	.	.
.	.	.	.	.	.	.	.	.	.	.	.	.	.	.	.	.	16G/JJ	.	16e/JJ	16cc\JJ	.	.	.	.	.	.	.	.	.	.	.	.	.	.
!	!	!LO:TX:a:t=P:problem:8C/ wygląda, jakby miała oznaczenie tremolo (dużo zmian w takcie)	!	!	!	!	!	!	!	!	!	!	!	!	!	!	!	!	!	!	!	!	!	!	!	!	!	!	!	!	!	!	!	!
.	.	8C/	.	8C/	.	.	8G/	.	.	8e/	.	.	8g/	-ne	-szym	.	16r	.	16r	16r	.	.	.	.	.	.	.	4g/)	.	.	.	.	.	.
.	.	.	.	.	.	.	.	.	.	.	.	.	.	.	.	.	16G/LL	.	16e/LL	16g/LL	.	.	.	.	.	.	.	.	.	.	.	.	.	.
.	.	8r	.	8C/	.	.	8c\	.	.	8e/	.	.	8g/	tak	i	.	16r	.	16e/	16g/	.	.	.	.	.	.	.	.	.	.	.	.	.	.
.	.	.	.	.	.	.	.	.	.	.	.	.	.	.	.	.	16c/JJ	.	16e/JJ	16g/JJ	.	.	.	.	.	.	.	.	.	.	.	.	.	.
=6	=6	=6	=6	=6	=6	=6	=6	=6	=6	=6	=6	=6	=6	=6	=6	=6	=6	=6	=6	=6	=6	=6	=6	=6	=6	=6	=6	=6	=6	=6	=6	=6	=6	=6
*	*	*	*	*	*	*	*	*	*	*	*	*	*	*	*	*	*	*	*	*	*	*	*	*^	*	*	*	*	*	*	*	*	*	*
!	!	!	!	!	!	!	!	!	!	!	!	!	!	!	!	!	!	!	!	!LO:TX:a:t=P:problem:takt po poprawkach głównego skryptora; po poprawkach także t. 7-12, 15, 22, 26	!	!	!	!LO:TX:a:t=P:problem:takt po poprawkach głównego skryptora; po poprawkach także t. 61	!	!	!	!	!	!	!	!	!	!	!
2r	.	8D\	.	4D/	.	.	4A\	.	.	4d/	.	.	4f/	wiel-	Oj-	.	16r	.	16r	16r	.	2r	.	(4A/	(4D\	.	2r	.	[4f/	2d\	.	2r	.	2r	.
.	.	.	.	.	.	.	.	.	.	.	.	.	.	.	.	.	16A/LL	.	16d/LL	16f/LL	.	.	.	.	.	.	.	.	.	.	.	.	.	.	.
.	.	8r	.	.	.	.	.	.	.	.	.	.	.	.	.	.	16A/	.	16d/	16f/	.	.	.	.	.	.	.	.	.	.	.	.	.	.	.
.	.	.	.	.	.	.	.	.	.	.	.	.	.	.	.	.	16A/JJ	.	16d/JJ	16f/JJ	.	.	.	.	.	.	.	.	.	.	.	.	.	.	.
.	.	16C/LL	.	8.C/	.	.	8.A-X\	.	.	8.d/	.	.	8.f/	-kiej	-cem	.	16r	.	16r	16r	.	.	.	8A-X/L)	8C\L)	.	.	.	8f/L]	.	.	.	.	.	.
.	.	16r	.	.	.	.	.	.	.	.	.	.	.	.	.	.	16A-X/LL	.	16d/LL	16f/LL	.	.	.	.	.	.	.	.	.	.	.	.	.	.	.
.	.	16BB/JJ	.	.	.	.	.	.	.	.	.	.	.	.	.	.	16r	.	16r	16r	.	.	.	8G/J	8BB\J	.	.	.	8g/J|	.	.	.	.	.	.
.	.	16r	.	16BB/	.	.	16G\	.	.	16d/	.	.	16g/	o-	na-	.	16G/JJ	.	16d/JJ	16g/JJ	.	.	.	.	.	.	.	.	.	.	.	.	.	.	.
=7	=7	=7	=7	=7	=7	=7	=7	=7	=7	=7	=7	=7	=7	=7	=7	=7	=7	=7	=7	=7	=7	=7	=7	=7	=7	=7	=7	=7	=7	=7	=7	=7	=7	=7	=7
*	*	*^	*	*	*	*	*	*	*	*	*	*	*	*	*	*	*	*	*	*	*	*^	*	*	*	*	*^	*	*	*	*	*	*	*	*
!LO:SIC:s=4CT/	!LO:DY:rj	!	!	!	!	!	!	!	!	!	!	!	!	!	!	!	!	!	!	!	!	!	!	!	!LO:DY:rj	!	!	!	!	!	!	!	!	!	!	!	!	!
4Ret/	p	8C\	4ryy	.	4C/	.	.	4G\	.	.	4c/	.	.	4e/	-fia-	-wie-	.	16r	.	16r	16r	.	(4ee/	(4cc\	p	4ryy	4G\ 4C\	.	(4ee/	(4cc\	.	(4e/	(4c\	.	4r	.	4r	.
.	.	.	.	.	.	.	.	.	.	.	.	.	.	.	.	.	.	16G/LL	.	16c/LL	16e/LL	.	.	.	.	.	.	.	.	.	.	.	.	.	.	.	.	.
.	.	8r	.	.	.	.	.	.	.	.	.	.	.	.	.	.	.	16G/	.	16c/	16e/	.	.	.	.	.	.	.	.	.	.	.	.	.	.	.	.	.
.	.	.	.	.	.	.	.	.	.	.	.	.	.	.	.	.	.	16G/JJ	.	16c/JJ	16e/JJ	.	.	.	.	.	.	.	.	.	.	.	.	.	.	.	.	.
!LO:SIC:s=8GG\	!	!	!	!	!	!	!	!	!	!	!	!	!	!	!	!	!	!	!	!	!	!	!	!	!	!	!	!	!	!	!	!	!	!	!	!	!	!
8Re\	.	16GG/	16GG\	.	8GG/	.	.	8B\	.	.	8d/	.	.	8g/	-ry	-ki	.	16r	.	16r	16r	.	8dd/)	8g\)	.	4B/	16GG\	.	8dd/ 8g/)	8g\)	.	16g/LL)	16B\)	.	16r	.	16r	.
.	.	16G\LL	8.ryy	.	.	.	.	.	.	.	.	.	.	.	.	.	.	16B/LL	.	16d/LL	16g/LL	.	.	.	.	.	16G\LL	.	.	.	.	16b/ 16g/	16g\LL	.	(16dd\LL	.	(16gg\LL	.
8r	.	16F\	.	.	8r	.	.	8r	.	.	8r	.	.	8r	.	.	.	16c/	.	16f/	16a/	.	8r	8r	.	.	16F\	.	8r	8r	.	16cc/	16a\	.	16ff\	.	16aa\	.
.	.	16E\JJ	.	.	.	.	.	.	.	.	.	.	.	.	.	.	.	16e/JJ	.	16g#X/JJ	16b/JJ	.	.	.	.	.	16E\JJ	.	.	.	.	16ee/JJ	16b\JJ	.	16gg#X\JJ	.	16bb\JJ	.
*	*	*v	*v	*	*	*	*	*	*	*	*	*	*	*	*	*	*	*	*	*	*	*	*v	*v	*	*	*	*	*v	*v	*	*	*	*	*	*	*	*
=8	=8	=8	=8	=8	=8	=8	=8	=8	=8	=8	=8	=8	=8	=8	=8	=8	=8	=8	=8	=8	=8	=8	=8	=8	=8	=8	=8	=8	=8	=8	=8	=8	=8	=8	=8
*	*	*	*	*	*	*	*	*	*	*	*	*	*	*	*	*	*	*	*	*	*^	*	*	*	*	*	*	*	*	*	*	*	*	*	*
!	!	!	!	!LO:TX:a:t=P:problem:takt po poprawkach głównego skryptora	!	!	!	!	!	!	!	!	!	!	!	!	!	!	!	!	!	!	!	!	!LO:TX:a:t=P:problem:8A\ i 8AA\ zapisane jak dwudźwięk, wspólna chorągiewka	!	!	!	!	!	!	!	!	!	!	!
2r	.	16AA\	.	(8AA/	.	.	4A\	.	.	4e/	.	.	4cc\	z_twe-	Cho-	.	16r	.	16r	16r	.	.	2r	.	8A\	8AA\	.	2r	.	2ee/	4cc\	.	2aa\)	<	4ccc\)	.
!	!	!	!	!	!	!	!	!	!	!	!	!	!	!	!	!	!	!LO:HP:a	!	!	!LO:HP:a	!	!	!	!	!	!	!	!	!	!	!	!	!	!	!
.	.	16r	.	.	.	.	.	.	.	.	.	.	.	.	.	.	16e\	<	16a/	16cc\	<	.	.	.	.	.	.	.	.	.	.	.	.	.	.	.
!	!	!	!	!	!	!	!	!	!	!	!	!	!	!	!	!	!	!	!	!	!	!	!	!	!	!	!LO:HP:a	!	!	!	!	!	!	!	!	!
*	*	*	*	*	*	*	*	*	*	*	*	*	*	*	*	*	*rep	*	*	*	*	*	*	*	*	*	*	*	*	*	*	*	*	*	*	*
.	.	16A\	<	4A\)	.	.	.	.	.	.	.	.	.	.	.	.	16r	.	16r	16r	.	.	.	.	4A\	8rEE	<	.	.	.	.	.	.	.	.	.
.	.	16r	.	.	.	.	.	.	.	.	.	.	.	.	.	.	16e\	.	16a/	16cc\	.	.	.	.	.	.	.	.	.	.	.	.	.	.	.	.
*	*	*	*	*	*	*	*	*	*	*	*	*	*	*	*	*	*Xrep	*	*	*	*	*	*	*	*	*	*	*	*	*	*	*	*	*	*	*
*	*	*	*	*	*	*	*	*	*	*	*	*	*	*	*	*	*rep	*	*	*	*	*	*	*	*	*	*	*	*	*	*	*	*	*	*	*
.	.	16A\	.	.	.	.	4A\	.	.	4e/	.	.	4cc#X\	-go	-ciaż	.	16r	.	16r	16r	.	.	.	.	.	4ryy	.	.	.	.	4cc#X\	<	.	.	4ccc#X\	<
.	.	16r	.	.	.	.	.	.	.	.	.	.	.	.	.	.	16e\	.	16a/	16cc#X\	.	<	.	.	.	.	.	.	.	.	.	.	.	.	.	.
*	*	*	*	*	*	*	*	*	*	*	*	*	*	*	*	*	*Xrep	*	*	*	*	*	*	*	*	*	*	*	*	*	*	*	*	*	*	*
*	*	*	*	*	*	*	*	*	*	*	*	*	*	*	*	*	*rep	*	*	*	*	*	*	*	*	*	*	*	*	*	*	*	*	*	*	*
.	.	16G\	.	8G\	.	.	.	.	.	.	.	.	.	.	.	.	16r	.	16r	16r	.	.	.	.	8G\	.	.	.	.	.	.	.	.	.	.	.
.	.	16r	.	.	.	.	.	.	.	.	.	.	.	.	.	.	16e\	.	16a/	16cc#\	.	.	.	.	.	.	.	.	.	.	.	.	.	.	.	.
*	*	*	*	*	*	*	*	*	*	*	*	*	*	*	*	*	*Xrep	*	*	*	*	*	*	*	*	*	*	*	*	*	*	*	*	*	*	*
*	*	*	*	*	*	*	*	*	*	*	*	*	*	*	*	*	*	*	*	*	*	*	*	*	*v	*v	*	*	*	*	*	*	*	*	*	*
=9	=9	=9	=9	=9	=9	=9	=9	=9	=9	=9	=9	=9	=9	=9	=9	=9	=9	=9	=9	=9	=9	=9	=9	=9	=9	=9	=9	=9	=9	=9	=9	=9	=9	=9	=9
2r	.	16F\	.	4F\	.	.	4A\	.	.	4f/	.	.	(8.dd\L	sto-	sła-	.	16r	.	16r	16r	.	.	2r	.	4F\	.	2r	.	2ff/	2dd\	[[	2aa\	[[	4ddd\	.
.	.	16r	.	.	.	.	.	.	.	.	.	.	.	.	.	.	16f\	.	16a/	16dd\	.	.	.	.	.	.	.	.	.	.	.	.	.	.	.
.	.	16F\	.	.	.	.	.	.	.	.	.	.	.	.	.	.	16r	.	16r	16r	.	.	.	.	.	.	.	.	.	.	.	.	.	.	.
.	.	16r	.	.	.	.	.	.	.	.	.	.	16ff\Jk)	.	.	.	16f\	.	16a/	16dd\	.	.	.	.	.	.	.	.	.	.	.	.	.	.	.
.	.	16D\	[	4D\	.	.	4d\	.	.	4a/	.	.	4ff\	-łu	-bi	.	16r	[	16r	16r	[	.	.	.	4D\	[	.	.	.	.	.	.	.	4fff\	[
.	.	16r	.	.	.	.	.	.	.	.	.	.	.	.	.	.	16d\	.	16a/	16ff\	.	.	.	.	.	.	.	.	.	.	.	.	.	.	.
.	.	16D\	.	.	.	.	.	.	.	.	.	.	.	.	.	.	16r	.	16r	16r	.	.	.	.	.	.	.	.	.	.	.	.	.	.	.
.	.	16r	.	.	.	.	.	.	.	.	.	.	.	.	.	.	16d\	.	16a/	16ff\	.	[[	.	.	.	.	.	.	.	.	.	.	.	.	.
*	*	*	*	*	*	*	*	*	*	*	*	*	*	*	*	*	*	*	*	*	*	*	*	*	*	*	*	*	*	*	*	*	*	*	*
=10	=10	=10	=10	=10	=10	=10	=10	=10	=10	=10	=10	=10	=10	=10	=10	=10	=10	=10	=10	=10	=10	=10	=10	=10	=10	=10	=10	=10	=10	=10	=10	=10	=10	=10	=10
*	*	*	*	*	*	*	*	*	*	*	*	*	*	*	*	*	*	*	*	*	*	*	*^	*	*^	*	*^	*	*	*	*	*	*	*	*
!	!	!	!LO:DY:rj	!	!	!	!	!	!	!	!	!	!	!	!	!LO:DY:rj	!	!	!	!	!	!	!	!	!	!	!	!	!	!	!LO:DY:rj	!	!	!LO:DY:rj	!	!LO:DY:rj	!	!LO:DY:rj
2r	.	8G\L	f	8G\L	.	.	4d\	.	.	4g/	.	.	4b\	da-	po-	f	16r	.	16r	16r	.	.	4dd/	4g/	f	4.ryy	8G\L	.	4dd/ 4g/	4ryy	f	(4dd/	(4b\	f	2gg\	f	(4bb\	f
!	!	!	!	!	!	!	!	!	!	!	!	!	!	!	!	!	!	!	!	!	!LO:DY:a:rj	!LO:DY:b=2	!	!	!	!	!	!	!	!	!	!	!	!	!	!	!	!
.	.	.	.	.	.	.	.	.	.	.	.	.	.	.	.	.	16d\LL	.	16g/	16b\	f	f	.	.	.	.	.	.	.	.	.	.	.	.	.	.	.	.
.	.	8F\	.	8F\J	.	.	.	.	.	.	.	.	.	.	.	.	16r	.	16r	16r	.	.	.	.	.	.	8F\	.	.	.	.	.	.	.	.	.	.	.
.	.	.	.	.	.	.	.	.	.	.	.	.	.	.	.	.	16d\JJ	.	16g/	16b\	.	.	.	.	.	.	.	.	.	.	.	.	.	.	.	.	.	.
.	.	8E\	.	8E\L	.	.	4c\	.	.	4g/	.	.	(8cc\L	-ry	-błą-	.	16r	.	16r	16r	.	.	4ee/	4cc\	.	.	8E\	.	8ee/L	8cc\L	.	8ee/)	8cc\L)	.	.	.	8ccc\L)	.
.	.	.	.	.	.	.	.	.	.	.	.	.	.	.	.	.	16c\	.	16g/	16cc\LL	.	.	.	.	.	.	.	.	.	.	.	.	.	.	.	.	.	.
.	.	8C\J	.	8C\J	.	.	.	.	.	.	.	.	8ee\J)	.	.	.	16r	.	16r	16r	.	.	.	.	.	8c/	8C\J	.	8gg/J	8cc\J	.	8ryy	8ccc\J| ee\|	.	.	.	8eee\J	.
.	.	.	.	.	.	.	.	.	.	.	.	.	.	.	.	.	16c\	.	16g/	16ee\JJ	.	.	.	.	.	.	.	.	.	.	.	.	.	.	.	.	.	.
*	*	*	*	*	*	*	*	*	*	*	*	*	*	*	*	*	*	*	*	*	*v	*v	*	*	*	*	*	*	*	*	*	*v	*v	*	*	*	*	*
=11	=11	=11	=11	=11	=11	=11	=11	=11	=11	=11	=11	=11	=11	=11	=11	=11	=11	=11	=11	=11	=11	=11	=11	=11	=11	=11	=11	=11	=11	=11	=11	=11	=11	=11	=11	=11
!LO:SIC:s=4CT/	!LO:DY:rj	!LO:TX:a:t=P:problem:8G\ wygląda, jakby miała oznaczenie tremolo	!	!	!	!	!	!	!	!	!	!	!	!	!	!	!	!	!	!	!	!	!	!	!	!	!	!	!	!	!	!	!	!	!	!
4Ret</	f	8G\	.	4G\	.	.	4c\	.	.	4g/	.	.	4ee\	bio-	-dzie-	.	16r	.	16r	16r	.	4ee/	4cc\	.	(4c/	4.G\ 4.GG\	.	4.gg/	4cc\	.	(4ccc\ 4ee\	.	4.gg\	.	(4eee\	.
.	.	.	.	.	.	.	.	.	.	.	.	.	.	.	.	.	16c\LL	.	16g/LL	16ee\LL	.	.	.	.	.	.	.	.	.	.	.	.	.	.	.	.
.	.	8r	.	.	.	.	.	.	.	.	.	.	.	.	.	.	16c\	.	16g/	16ee\	.	.	.	.	.	.	.	.	.	.	.	.	.	.	.	.
.	.	.	.	.	.	.	.	.	.	.	.	.	.	.	.	.	16c\JJ	.	16g/JJ	16ee\JJ	.	.	.	.	.	.	.	.	.	.	.	.	.	.	.	.
!LO:SIC:s=8GG\	!	!	!	!	!	!	!	!	!	!	!	!	!	!	!	!	!	!	!	!	!	!	!	!	!	!	!	!	!	!	!	!	!	!	!	!
8Re\	.	8GG\L	.	8G\ 8GG\	.	.	8B\	.	.	8g/	.	.	8dd\	-rą	-my	.	16r	.	16r	16r	.	8dd/	8g/	.	8B/)	.	.	.	8g\	.	8bb\ 8gg\)	.	.	.	8ddd\)	.
.	.	.	.	.	.	.	.	.	.	.	.	.	.	.	.	.	16B\LL	.	16g/LL	16dd\LL	.	.	.	.	.	.	.	.	.	.	.	.	.	.	.	.
8r	.	8G\J	.	8r	.	.	8r	.	.	8r	.	.	8r	.	.	.	16B\	.	16g/	16dd\	.	8r	8r	.	8r	8r	.	8raa	8r	.	8r	.	8ryy	.	8r	.
.	.	.	.	.	.	.	.	.	.	.	.	.	.	.	.	.	16B\JJ	.	16g/JJ	16dd\JJ	.	.	.	.	.	.	.	.	.	.	.	.	.	.	.	.
*	*	*	*	*	*	*	*	*	*	*	*	*	*	*	*	*	*	*	*	*	*	*v	*v	*	*	*	*	*v	*v	*	*	*	*	*	*	*
!!LO:PB:g=original
=12	=12	=12	=12	=12	=12	=12	=12	=12	=12	=12	=12	=12	=12	=12	=12	=12	=12	=12	=12	=12	=12	=12	=12	=12	=12	=12	=12	=12	=12	=12	=12	=12	=12	=12
*	*	*	*	*	*	*	*	*	*	*	*	*	*	*	*	*	*	*	*	*	*	*	*	*	*	*	*	*	*^	*	*	*	*	*
2r	.	8F#X\	.	4F#X\	.	.	4A\	.	.	4a/	.	.	4dd\	Rę-	Prze-	.	16r	.	16r	16r	.	2r	.	[4A/ 4F#/	[4F#X\	.	2r	.	2dd/	4a^\	.	4.aa^<\	.	4ddd^<\	.
.	.	.	.	.	.	.	.	.	.	.	.	.	.	.	.	.	16A/LL	.	16a^/LL	16dd^<\LL	.	.	.	.	.	.	.	.	.	.	.	.	.	.	.
.	.	8r	.	.	.	.	.	.	.	.	.	.	.	.	.	.	16A/	.	16a/	16dd\	.	.	.	.	.	.	.	.	.	.	.	.	.	.	.
.	.	.	.	.	.	.	.	.	.	.	.	.	.	.	.	.	16A/JJ	.	16a/JJ	16dd\JJ	.	.	.	.	.	.	.	.	.	.	.	.	.	.	.
.	.	16F#\LL	.	8F#\	.	.	8d\	.	.	8a/	.	.	8a\	-ce	-cie	.	16r	.	16r	16r	.	.	.	8A/L]	8F#\L]	.	.	.	.	4b\	.	.	.	8aa\L	.
!	!	!	!	!	!	!	!	!	!	!	!	!	!	!	!	!	!	!	!LO:TX:a:t=P:problem:początkowo zamiast dwóch pauz 16r nuty 16a/L i 16g/ ; akcenty w źródle znajdują się pod zastąpionymi przez pauzy nutami.	!LO:TX:a:t=P:problem:początkowo zamiast dwóch pauz 16r nuty 16a\L i 16b\ ; akcenty w źródle znajdują się nad zastąpionymi przez pauzy nutami.	!	!	!	!	!	!	!	!	!	!	!	!	!	!	!
.	.	16r	.	.	.	.	.	.	.	.	.	.	.	.	.	.	16d\	.	16a^/LL	16a^\LL	.	.	.	.	.	.	.	.	.	.	.	.	.	.	.
.	.	16Fn\JJ	.	8Fn\	.	.	8d\	.	.	8g/	.	.	8b\	do	z_pod	.	16r	.	16r	16r	.	.	.	8G/J	8Fn\J	.	.	.	.	.	.	8gg\	.	8bb\J	.
.	.	16r	.	.	.	.	.	.	.	.	.	.	.	.	.	.	16d\	.	16g^/JJ	16b^\JJ	.	.	.	.	.	.	.	.	.	.	.	.	.	.	.
=13	=13	=13	=13	=13	=13	=13	=13	=13	=13	=13	=13	=13	=13	=13	=13	=13	=13	=13	=13	=13	=13	=13	=13	=13	=13	=13	=13	=13	=13	=13	=13	=13	=13	=13	=13
*	*	*^	*	*	*	*	*	*	*	*	*	*	*	*	*	*	*	*	*	*	*	*	*	*	*	*	*	*	*	*	*	*	*	*	*
*tremolo	*	*	*	*	*	*	*	*	*	*	*	*	*	*	*	*	*	*	*	*	*	*	*	*	*	*	*	*	*	*	*	*	*	*	*	*
!LO:SIC:s=32C/LLL	!	!	!	!	!	!	!	!	!	!	!	!	!	!	!	!	!	!	!	!	!	!	!	!	!	!	!	!	!	!	!	!	!	!	!	!
32Re/LLL	.	8E\	4ryy	.	4E\	.	.	4c\	.	.	4g/	.	.	4cc\	Oj-	Two-	.	16r	.	16r	16r	.	4.g/ 4.c/	.	4.G/	4.E\	.	4.ee\ 4.cc^<\	.	4.cc/	(4.cc\	.	4.gg\	.	(4ccc^<\	.
!LO:SIC:s=32C/	!	!	!	!	!	!	!	!	!	!	!	!	!	!	!	!	!	!	!	!	!	!	!	!	!	!	!	!	!	!	!	!	!	!	!	!
32Re/	.	.	.	.	.	.	.	.	.	.	.	.	.	.	.	.	.	.	.	.	.	.	.	.	.	.	.	.	.	.	.	.	.	.	.	.
!LO:SIC:s=32C/	!	!	!	!	!	!	!	!	!	!	!	!	!	!	!	!	!	!	!	!	!	!	!	!	!	!	!	!	!	!	!	!	!	!	!	!
32Re/	.	.	.	.	.	.	.	.	.	.	.	.	.	.	.	.	.	16c\LL	.	16g^/LL	16cc^<\LL	.	.	.	.	.	.	.	.	.	.	.	.	.	.	.
!LO:SIC:s=32C/	!	!	!	!	!	!	!	!	!	!	!	!	!	!	!	!	!	!	!	!	!	!	!	!	!	!	!	!	!	!	!	!	!	!	!	!
32Re/	.	.	.	.	.	.	.	.	.	.	.	.	.	.	.	.	.	.	.	.	.	.	.	.	.	.	.	.	.	.	.	.	.	.	.	.
!LO:SIC:s=32C/	!	!LO:N:vis=16r	!	!	!	!	!	!	!	!	!	!	!	!	!	!	!	!	!	!	!	!	!	!	!	!	!	!	!	!	!	!	!	!	!	!
32Re/	.	8r	.	.	.	.	.	.	.	.	.	.	.	.	.	.	.	16c\	.	16g/	16cc\	.	.	.	.	.	.	.	.	.	.	.	.	.	.	.
!LO:SIC:s=32C/	!	!	!	!	!	!	!	!	!	!	!	!	!	!	!	!	!	!	!	!	!	!	!	!	!	!	!	!	!	!	!	!	!	!	!	!
32Re/	.	.	.	.	.	.	.	.	.	.	.	.	.	.	.	.	.	.	.	.	.	.	.	.	.	.	.	.	.	.	.	.	.	.	.	.
!LO:SIC:s=32C/	!	!	!	!	!	!	!	!	!	!	!	!	!	!	!	!	!	!	!	!	!	!	!	!	!	!	!	!	!	!	!	!	!	!	!	!
32Re/	.	.	.	.	.	.	.	.	.	.	.	.	.	.	.	.	.	16c\JJ	.	16g/JJ	16cc\JJ	.	.	.	.	.	.	.	.	.	.	.	.	.	.	.
!LO:SIC:s=32C/JJJ	!	!	!	!	!	!	!	!	!	!	!	!	!	!	!	!	!	!	!	!	!	!	!	!	!	!	!	!	!	!	!	!	!	!	!	!
32Re/JJJ	.	.	.	.	.	.	.	.	.	.	.	.	.	.	.	.	.	.	.	.	.	.	.	.	.	.	.	.	.	.	.	.	.	.	.	.
*Xtremolo	*	*	*	*	*	*	*	*	*	*	*	*	*	*	*	*	*	*	*	*	*	*	*	*	*	*	*	*	*	*	*	*	*	*	*	*
!LO:SIC:s=8C/	!	!	!	!	!	!	!	!	!	!	!	!	!	!	!	!	!	!	!	!	!	!	!	!	!	!	!	!	!	!	!	!	!	!	!	!
8Re/	.	16E/	16E\	.	8E\	.	.	8c\	.	.	8g/	.	.	8g/	-ca	-iej	.	16c\KL	.	16g/KL	16g/KL	.	.	.	.	.	.	.	.	.	.	.	.	.	8gg\)	.
.	.	16r	8.ryy	.	.	.	.	.	.	.	.	.	.	.	.	.	.	16r	.	16r	16r	.	.	.	.	.	.	.	.	.	.	.	.	.	.	.
!	!	!	!	!LO:DY:rj	!	!	!	!	!	!	!	!	!LO:DY:b	!	!	!	!LO:DY:a:rj	!	!LO:DY:a	!	!	!	!	!	!	!	!	!	!	!LO:TX:a:t=P:problem:pod tą pauzą jeszcze jedna 8r, obie po 8g\)	!	!	!	!	!	!
8r	.	8G\	.	p	8G\	.	.	8G/	.	.	8g/	.	p	8g/	po-	nie-	p	8g\J	p	8g/J	8g/J|	p	8r	.	8r	8r	.	8r	.	8raa	8g\)	.	8r	.	8r	.
*	*	*v	*v	*	*	*	*	*	*	*	*	*	*	*	*	*	*	*	*	*	*	*	*	*	*	*	*	*	*	*	*	*	*	*	*	*
*	*	*	*	*	*	*	*	*	*	*	*	*	*	*	*	*	*	*	*	*	*	*	*	*v	*v	*	*	*	*v	*v	*	*	*	*	*
=14	=14	=14	=14	=14	=14	=14	=14	=14	=14	=14	=14	=14	=14	=14	=14	=14	=14	=14	=14	=14	=14	=14	=14	=14	=14	=14	=14	=14	=14	=14	=14	=14	=14
2r	.	(8.G\L	.	(8.G\L	.	.	(8.G/L	.	.	(8.g/L	.	.	(8.g/L	-dno-	-wyi-	.	(8.g\L	.	(8.g/L	(8.g/L	.	2r	.	2r	.	2r	.	2r	.	2r	.	2r	.
.	.	32A\LL	.	32A\LL	.	.	32A/LL	.	.	32a/LL	.	.	32a/LL	.	.	.	32a\LL	.	32a/LL	32a/LL	.	.	.	.	.	.	.	.	.	.	.	.	.
.	.	32G\JJJ	.	32G\JJJ	.	.	32G/JJJ)	.	.	32g/JJJ)	.	.	32g/JJJ)	.	.	.	32g\JJJ	.	32g/JJJ	32g/JJJ	.	.	.	.	.	.	.	.	.	.	.	.	.
!	!	!	!	!	!	!	!	!	!	!	!	!	!LO:SIC:s=8e/:v	!	!	!	!	!	!	!	!	!	!	!	!	!	!	!	!	!	!	!	!
.	.	8E\)	.	8E\)	.	.	8E/	.	.	8e/	.	.	8d/	-szą	-dziem	.	8e\L)	.	8e/L)	8e/L)	.	.	.	.	.	.	.	.	.	.	.	.	.
.	.	8C\|	.	8C\|	.	.	8C/	.	.	8c/	.	.	8c/	po	o-	.	8c'\J	.	8c/J|	8c/J|	.	.	.	.	.	.	.	.	.	.	.	.	.
=15	=15	=15	=15	=15	=15	=15	=15	=15	=15	=15	=15	=15	=15	=15	=15	=15	=15	=15	=15	=15	=15	=15	=15	=15	=15	=15	=15	=15	=15	=15	=15	=15	=15
2r	.	4G\	.	4G\	.	.	4G/	.	.	4g/	.	.	4g/	da-	-pie-	.	[4G/	.	(4g/	[4g/	.	16r	.	2r	.	2r	.	16r	.	16r	.	16r	.
!	!	!	!	!	!	!	!	!	!	!	!	!	!	!	!	!	!	!	!	!	!	!	!LO:DY:a:rj	!	!	!	!	!	!LO:DY:rj	!	!	!	!LO:DY:rj
.	.	.	.	.	.	.	.	.	.	.	.	.	.	.	.	.	.	.	.	.	.	(>16ee/LL 16cc/	p	.	.	.	.	(16ee/LL 16cc/	p	(16ccc\LL	.	(16eee\LL	p
.	.	.	.	.	.	.	.	.	.	.	.	.	.	.	.	.	.	.	.	.	.	16dd/ 16g/	.	.	.	.	.	16dd/ 16g/	.	16gg\	.	16ddd\	.
.	.	.	.	.	.	.	.	.	.	.	.	.	.	.	.	.	.	.	.	.	.	16cc/JJ 16e/)	.	.	.	.	.	16cc/JJ 16e/	.	16ee\JJ)	.	16ccc\JJ	.
.	.	4GG/	.	8G\	.	.	8G/	.	.	8g/	.	.	8g/	-ry	-ki	.	16G/LL]	.	16g/LL	16g/LL]	<	8dd/ 8g/	.	.	.	.	.	8dd/ 8g/)	.	8gg\	.	8ddd\)	.
.	.	.	.	.	.	.	.	.	.	.	.	.	.	.	.	.	(16B/	.	(16g/)	(16g/	.	.	.	.	.	.	.	.	.	.	.	.	.
.	.	.	.	8r	.	.	8r	.	.	8r	.	.	8r	.	.	.	16c/	.	16f#X/	16a/	.	8r	.	.	.	.	.	8r	.	8r	.	8r	.
!	!	!	!	!	!	!	!	!	!	!	!	!	!	!	!	!	!LO:TX:a:t=P:problem:łuk kończy się na kresce taktowej	!	!	!	!	!	!	!	!	!	!	!	!	!	!	!	!
.	.	.	.	.	.	.	.	.	.	.	.	.	.	.	.	.	16d/JJ)	.	16fn/JJ)	16b/JJ)	[[	.	.	.	.	.	.	.	.	.	.	.	.
=16	=16	=16	=16	=16	=16	=16	=16	=16	=16	=16	=16	=16	=16	=16	=16	=16	=16	=16	=16	=16	=16	=16	=16	=16	=16	=16	=16	=16	=16	=16	=16	=16	=16
*	*	*^	*	*	*	*	*	*	*	*	*	*	*	*	*	*	*	*	*	*	*	*	*	*	*	*^	*	*^	*	*	*	*	*
*	*	*tremolo	*	*	*	*	*	*	*	*	*	*	*	*	*	*	*	*tremolo	*	*tremolo	*tremolo	*	*	*	*	*	*	*	*	*	*	*	*	*	*	*
!LO:SIC:s=2CT/	!LO:DY:rj	!	!	!LO:DY:rj	!	!	!	!	!	!LO:DY:rj:b	!	!	!LO:DY:b:rj	!	!	!	!LO:DY:a:rj	!	!LO:DY:a:rj	!	!	!LO:DY:a	!	!	!	!LO:DY:rj	!	!	!LO:DY:rj	!	!	!LO:DY:rj	!	!	!	!
2Ret</	f	16AA/LL	8AA\L	f	4A\	.	.	4A\	.	f	4e/	.	f	4cc\	I	Gdy-	f	16A/LL	f	16e/LL	16cc\LL	f	2cc/ 2e/	.	4A\	f	2ee/	2cc\	f	2ee/	2a\	f	(4ee\	.	(4ccc\	f
.	.	16AA/	.	.	.	.	.	.	.	.	.	.	.	.	.	.	.	16A/	.	16e/	16cc\	.	.	.	.	.	.	.	.	.	.	.	.	.	.	.
.	.	16A/	8A\J	.	.	.	.	.	.	.	.	.	.	.	.	.	.	16A/	.	16e/	16cc\	.	.	.	.	.	.	.	.	.	.	.	.	.	.	.
.	.	16A/JJ	.	.	.	.	.	.	.	.	.	.	.	.	.	.	.	16A/	.	16e/JJ	16cc\JJ	.	.	.	.	.	.	.	.	.	.	.	.	.	.	.
.	.	16GG/LL	8GG\L	.	4G\	.	.	4A\	.	.	4c/	.	.	4e/	z_u-	-cię	.	16A/	.	16c/LL	16e/LL	.	.	.	4G\	.	.	.	.	.	.	.	4cc\)	.	4ee\)	.
.	.	16GG/	.	.	.	.	.	.	.	.	.	.	.	.	.	.	.	16A/	.	16c/	16e/	.	.	.	.	.	.	.	.	.	.	.	.	.	.	.
.	.	16G/	8G\J	.	.	.	.	.	.	.	.	.	.	.	.	.	.	16A/	.	16c/	16e/	.	.	.	.	.	.	.	.	.	.	.	.	.	.	.
.	.	16G/JJ	.	.	.	.	.	.	.	.	.	.	.	.	.	.	.	16A/JJ	.	16c/JJ	16e/JJ	.	.	.	.	.	.	.	.	.	.	.	.	.	.	.
=17	=17	=17	=17	=17	=17	=17	=17	=17	=17	=17	=17	=17	=17	=17	=17	=17	=17	=17	=17	=17	=17	=17	=17	=17	=17	=17	=17	=17	=17	=17	=17	=17	=17	=17	=17	=17
*	*	*	*	*	*	*	*	*	*	*	*	*	*	*	*	*	*	*	*	*	*	*	*^	*	*	*	*	*	*	*	*	*	*	*	*	*
2r	.	16FF/LL	8FF\L	.	4F\	.	.	4A\	.	.	4d/	.	.	8.d/L	-fno-	po-	.	16A/LL	.	16d/LL	16d/LL	.	2a/	2f\	.	2F\	.	2ff/	2dd\	.	2dd/	2a\	.	2dd\	.	(4dd\	.
.	.	16FF/	.	.	.	.	.	.	.	.	.	.	.	.	.	.	.	16A/	.	16d/	16d/	.	.	.	.	.	.	.	.	.	.	.	.	.	.	.	.
.	.	16F/	8F\J	.	.	.	.	.	.	.	.	.	.	.	.	.	.	16A/	.	16d/	16d/	.	.	.	.	.	.	.	.	.	.	.	.	.	.	.	.
.	.	16F/JJ	.	.	.	.	.	.	.	.	.	.	.	16a/Jk	.	.	.	16A/	.	16d/	16d/JJ	.	.	.	.	.	.	.	.	.	.	.	.	.	.	.	.
.	.	16FF/LL	8FF\L	.	4F\	.	.	4A\	.	.	4d/	.	.	4a/	-ścią	-śród	.	16A/	.	16d/	16a/LL	.	.	.	.	.	.	.	.	.	.	.	.	.	.	4aa\)	.
.	.	16FF/	.	.	.	.	.	.	.	.	.	.	.	.	.	.	.	16A/	.	16d/	16a/	.	.	.	.	.	.	.	.	.	.	.	.	.	.	.	.
.	.	16F/	8F\J	.	.	.	.	.	.	.	.	.	.	.	.	.	.	16A/	.	16d/	16a/	.	.	.	.	.	.	.	.	.	.	.	.	.	.	.	.
.	.	16F/JJ	.	.	.	.	.	.	.	.	.	.	.	.	.	.	.	16A/JJ	.	16d/JJ	16a/JJ	.	.	.	.	.	.	.	.	.	.	.	.	.	.	.	.
*	*	*	*	*	*	*	*	*	*	*	*	*	*	*	*	*	*	*	*	*	*	*	*v	*v	*	*	*	*	*	*	*	*	*	*	*	*	*
=18	=18	=18	=18	=18	=18	=18	=18	=18	=18	=18	=18	=18	=18	=18	=18	=18	=18	=18	=18	=18	=18	=18	=18	=18	=18	=18	=18	=18	=18	=18	=18	=18	=18	=18	=18	=18
*>B1	*>B1	*>B1	*>B1	*>B1	*>B1	*>B1	*>B1	*>B1	*>B1	*>B1	*>B1	*>B1	*>B1	*>B1	*>B1	*>B1	*>B1	*>B1	*>B1	*>B1	*>B1	*>B1	*>B1	*>B1	*>B1	*>B1	*>B1	*>B1	*>B1	*>B1	*>B1	*>B1	*>B1	*>B1	*>B1	*>B1
!!LO:TX:t=1ma
!	!	!	!	!	!	!	!	!	!	!	!	!	!	!	!	!	!	!	!	!	!	!LO:DY:a	!	!	!	!	!	!	!	!	!	!LO:DY:rj	!	!LO:DY:rj	!	!LO:DY:a:rj
!	!	!	!	!	!	!	!	!	!	!	!	!	!	!	!	!	!	!	!LO:HP:a	!	!	!LO:HP:a	!	!	!	!	!	!	!	!	!	!	!	!	!	!
!	!	!LO:TX:a:t=P:problem:mixed beam	!	!	!	!	!	!	!	!	!	!	!	!	!	!	!	!	!LO:DY:a:rj	!	!	!	!	!	!	!	!	!	!	!	!	!	!	!	!LO:TX:a:t=P:problem:oznaczenie wolty tylko w głosach Flauto i Soprano 1ᵒ (tam opisane jako "1.")	!
2r	.	16GG/LL	8GG\L	.	4G\	.	.	4c\	.	.	4e/	.	.	4g/	i	.	.	16c\LL	p <	16e/LL	16g/LL	p <	2r	.	(4G\	p	(4ee/	4cc\	p	(2cc/	4g\	p	(4ee\	p	(4gg\	p <
!	!	!	!	!	!	!	!	!	!	!	!	!	!	!	!	!	!	!	!	!	!	!LO:DY:a	!	!	!	!	!	!	!	!	!	!	!	!	!	!
.	.	16GG/	.	.	.	.	.	.	.	.	.	.	.	.	.	.	.	16c\	.	16e/	16g/	.	.	.	.	.	.	.	.	.	.	.	.	.	.	.
.	.	16G\	8G\J	.	.	.	.	.	.	.	.	.	.	.	.	.	.	16c\	.	16e/	16g/	.	.	.	.	.	.	.	.	.	.	.	.	.	.	.
.	.	16G\JJ	.	.	.	.	.	.	.	.	.	.	.	.	.	.	.	16c\	.	16e/JJ	16g/JJ	.	.	.	.	.	.	.	.	.	.	.	.	.	.	.
!	!	!	!	!	!	!	!	!	!	!	!	!	!	!	!	!	!	!	!	!	!	!	!	!	!	!	!LO:TX:a:t=P:problem:łuk kończy sę na kresce taktowej	!	!	!	!	!	!	!	!	!
.	.	16F#X/LL	4F#\	.	4F#X\	.	.	4c\	.	.	4e-X/	.	.	4a/	z_po-	.	.	16c\	.	16e-X/LL	16a/LL	.	.	.	4F#X\	.	4ee-X/)	4cc\	.	.	4a\	.	4ee-X\	.	4aa\	[[
.	.	16F#/	.	.	.	.	.	.	.	.	.	.	.	.	.	.	.	16c\	.	16e-/	16a/	.	.	.	.	.	.	.	.	.	.	.	.	.	.	.
!	!	!	!	!	!	!	!	!	!	!	!	!	!	!	!	!	!	!	!LO:HP:a	!	!	!	!	!	!	!	!	!	!	!	!	!	!	!	!	!
.	.	16F#/	.	.	.	.	.	.	.	.	.	.	.	.	.	.	.	16c\	[ >	16e-/	16a/	.	.	.	.	.	.	.	.	.	.	.	.	.	.	.
.	.	16F#/JJ	.	.	.	.	.	.	.	.	.	.	.	.	.	.	.	16c\JJ	.	16e-/JJ	16a/JJ	[[	.	.	.	.	.	.	.	.	.	.	.	.	.	.
*	*	*	*	*	*	*	*	*	*	*	*	*	*	*	*	*	*	*	*	*	*	*	*	*	*	*	*v	*v	*	*	*	*	*	*	*	*
=19	=19	=19	=19	=19	=19	=19	=19	=19	=19	=19	=19	=19	=19	=19	=19	=19	=19	=19	=19	=19	=19	=19	=19	=19	=19	=19	=19	=19	=19	=19	=19	=19	=19	=19	=19
!LO:SIC:s=2GGT\	!LO:DY:rj	!	!	!	!	!	!	!	!	!	!	!	!	!	!	!	!	!	!	!	!	!LO:HP:a	!	!	!	!	!	!	!	!	!	!	!	!	!
2Rett\	pp	16G/LL	4G\	.	4G\	.	.	4d\	.	.	4d/	.	.	4b/	-ko-	.	.	16d\LL	.	16d/LL	16b/LL	>	2r	.	4G\	.	2dd/ 2g/	.	2dd/)	2b\	.	4dd\	.	4bb\	>
.	.	16G/	.	.	.	.	.	.	.	.	.	.	.	.	.	.	.	16d\	.	16d/	16b/	.	.	.	.	.	.	.	.	.	.	.	.	.	.
.	.	16G/	.	.	.	.	.	.	.	.	.	.	.	.	.	.	.	16d\	.	16d/	16b/	.	.	.	.	.	.	.	.	.	.	.	.	.	.
.	.	16G/JJ	.	.	.	.	.	.	.	.	.	.	.	.	.	.	.	16d\JJ	]	16d/JJ	16b/JJ	.	.	.	.	.	.	.	.	.	.	.	.	.	.
!	!	!	!	!	!	!	!	!	!	!	!	!	!	!	!	!	!	!	!	!	!	!	!	!	!	!	!	!	!	!	!	!	!	!LO:TX:a:t=P:problem:po tej stronie wycięta kartka	!
.	.	16G/LL	4G\ 4GG\	.	8G\	.	.	8d\ 8B\	.	.	8f/	.	.	8g/	-rą	.	.	16d\LL 16B\	.	16f/LL	16g/LL	]	.	.	4GG/)	.	.	.	.	.	.	4ff\)	.	4gg\)	]
.	.	16G/	.	.	.	.	.	.	.	.	.	.	.	.	.	.	.	16d\ 16B\	.	16f/	16g/	.	.	.	.	.	.	.	.	.	.	.	.	.	.
.	.	16G/	.	.	8r	.	.	8r	.	.	8r	.	.	8r	.	.	.	16d\ 16B\	.	16f/	16g/	.	.	.	.	.	.	.	.	.	.	.	.	.	.
.	.	16G/JJ	.	.	.	.	.	.	.	.	.	.	.	.	.	.	.	16d\JJ 16B\	.	16f/JJ	16g/JJ	.	.	.	.	.	.	.	.	.	.	.	.	.	.
!!LO:PB:g=original
=20:|!	=20:|!	=20:|!	=20:|!	=20:|!	=20:|!	=20:|!	=20:|!	=20:|!	=20:|!	=20:|!	=20:|!	=20:|!	=20:|!	=20:|!	=20:|!	=20:|!	=20:|!	=20:|!	=20:|!	=20:|!	=20:|!	=20:|!	=20:|!	=20:|!	=20:|!	=20:|!	=20:|!	=20:|!	=20:|!	=20:|!	=20:|!	=20:|!	=20:|!	=20:|!	=20:|!
*>B2	*>B2	*>B2	*>B2	*>B2	*>B2	*>B2	*>B2	*>B2	*>B2	*>B2	*>B2	*>B2	*>B2	*>B2	*>B2	*>B2	*>B2	*>B2	*>B2	*>B2	*>B2	*>B2	*>B2	*>B2	*>B2	*>B2	*>B2	*>B2	*>B2	*>B2	*>B2	*>B2	*>B2	*>B2	*>B2
!!LO:TX:t=2
*	*	*	*	*	*	*	*	*	*	*	*	*	*	*	*	*	*	*	*	*	*	*	*	*	*^	*	*^	*	*	*	*	*	*	*	*
!LO:TX:a:t=P:problem:brak zapisu jednolinii na stronie w źródle (t. 20-24)	!	!	!	!	!	!	!	!	!	!	!	!	!	!	!	!	!	!	!	!	!	!	!LO:TX:a:t=P:problem:takt po poprawkach głównego skryptora	!	!	!	!	!	!	!	!	!	!	!	!	!LO:TX:a:t=P:problem:oznaczenie wolty tylko w głosach Flauto i pierwszych Violini	!
2ryy	.	16GG/LL	8GG\L	<	4.G\	.	.	4c\	.	.	(>4e/	.	.	(4g/	.	nas	.	16c\LL	.	16e/LL	16g/LL	<	2r	.	4G/	4G\	.	(4ee/	4cc\	.	(4cc/	4g\	.	(4ee\	.	(4gg\	<
.	.	16GG/	.	.	.	.	.	.	.	.	.	.	.	.	.	.	.	16c\	.	16e/	16g/	.	.	.	.	.	.	.	.	.	.	.	.	.	.	.	.
.	.	16G/	8G\J	.	.	.	.	.	.	.	.	.	.	.	.	.	.	16c\	.	16e/	16g/	.	.	.	.	.	.	.	.	.	.	.	.	.	.	.	.
.	.	16G/JJ	.	.	.	.	.	.	.	.	.	.	.	.	.	.	.	16c\JJ	.	16e/JJ	16g/JJ	.	.	.	.	.	.	.	.	.	.	.	.	.	.	.	.
.	.	16GG/LL	8GG\L	[	.	.	.	8e-X\	.	.	8f#X/)	.	.	8a/)	.	.	.	16e-X\LL	.	16f#X/LL	16a/LL	.	.	.	4ryy	4G\ 4GG\	.	8ee-X/L	8cc\L	.	8ee-X/L	8a\L	.	8ff#X\L	.	8aa\L	.
.	.	16GG/	.	.	.	.	.	.	.	.	.	.	.	.	.	.	.	16e-\	.	16f#/	16a/	.	.	.	.	.	.	.	.	.	.	.	.	.	.	.	.
.	.	16G/	8G\J	.	8G\	.	.	8d\	.	.	8fn/	.	.	8b/	.	czu-	.	16d\	.	16fn/	16b/	.	.	.	.	.	.	8dd/J)	8g\J	.	8dd/J)	8b\J	.	8ffn\J)	.	8bb\J)	[[
.	.	16G/JJ	.	.	.	.	.	.	.	.	.	.	.	.	.	.	.	16d\JJ	.	16f/JJ	16b/JJ	[	.	.	.	.	.	.	.	.	.	.	.	.	.	.	.
*	*	*Xtremolo	*	*	*	*	*	*	*	*	*	*	*	*	*	*	*	*	*	*	*	*	*	*	*	*	*	*	*	*	*	*	*	*	*	*	*
*	*	*	*	*	*	*	*	*	*	*	*	*	*	*	*	*	*	*	*	*	*	*	*	*	*v	*v	*	*	*	*	*	*	*	*	*	*	*
*	*	*	*	*	*	*	*	*	*	*	*	*	*	*	*	*	*	*	*	*	*	*	*	*	*	*	*v	*v	*	*	*	*	*	*	*	*
=21	=21	=21	=21	=21	=21	=21	=21	=21	=21	=21	=21	=21	=21	=21	=21	=21	=21	=21	=21	=21	=21	=21	=21	=21	=21	=21	=21	=21	=21	=21	=21	=21	=21	=21	=21
!	!	!	!	!LO:DY:rj	!	!	!	!	!	!	!	!	!	!	!	!	!	!	!	!	!	!LO:DY:rj	!	!	!	!	!	!	!	!	!	!	!	!	!
2ryy	.	16C/LL	4C\	f >	4C/	.	.	4B\	.	.	4f/	.	.	4dd\	.	-ie-	.	16d\LL 16B\	.	16f/LL	16dd\LL	f >	4dd/ 4g/	.	4G\ 4C\	.	4dd/ 4g/	.	(4dd/	4b\	.	(4ff\	.	(4ddd\	f
.	.	16G/	.	.	.	.	.	.	.	.	.	.	.	.	.	.	.	16d\ 16B\	.	16f/	16dd\	.	.	.	.	.	.	.	.	.	.	.	.	.	.
.	.	16B/	.	.	.	.	.	.	.	.	.	.	.	.	.	.	.	16d\ 16B\	.	16f/	16dd\	.	.	.	.	.	.	.	.	.	.	.	.	.	.
.	.	16G/JJ	.	.	.	.	.	.	.	.	.	.	.	.	.	.	.	16d\JJ 16B\	.	16f/JJ	16dd\JJ	.	.	.	.	.	.	.	.	.	.	.	.	.	.
*	*	*	*	*	*	*	*	*	*	*	*	*	*	*	*	*	*	*Xtremolo	*	*Xtremolo	*Xtremolo	*	*	*	*	*	*	*	*	*	*	*	*	*	*
.	.	8c/	8C\	]]	8C/	.	.	8c\	.	.	8e/	.	.	8cc\	.	-my	.	8c\	.	8e/	16cc\LL	]	8cc/ 8e/	.	8G\ 8C\	.	8cc/ 8e/	.	8cc/)	8cc\	.	8ee\)	.	8ccc\)	.
.	.	.	.	.	.	.	.	.	.	.	.	.	.	.	.	.	.	.	.	.	(16bb-X\	.	.	.	.	.	.	.	.	.	.	.	.	.	.
.	.	8rc	8r	.	8r	.	.	8r	.	.	8r	.	.	8r	.	.	.	8r	.	8r	16gg\	.	8r	.	8r	.	8r	.	8r	8rcyy	.	8r	.	8r	.
.	.	.	.	.	.	.	.	.	.	.	.	.	.	.	.	.	.	.	.	.	16ee\JJ	.	.	.	.	.	.	.	.	.	.	.	.	.	.
*	*	*v	*v	*	*	*	*	*	*	*	*	*	*	*	*	*	*	*	*	*	*	*	*	*	*	*	*	*	*v	*v	*	*	*	*	*
=22	=22	=22	=22	=22	=22	=22	=22	=22	=22	=22	=22	=22	=22	=22	=22	=22	=22	=22	=22	=22	=22	=22	=22	=22	=22	=22	=22	=22	=22	=22	=22	=22	=22
*>C	*>C	*>C	*>C	*>C	*>C	*>C	*>C	*>C	*>C	*>C	*>C	*>C	*>C	*>C	*>C	*>C	*>C	*>C	*>C	*>C	*>C	*>C	*>C	*>C	*>C	*>C	*>C	*>C	*>C	*>C	*>C	*>C	*>C
2ryy	.	4r	.	2r	.	.	2r	.	.	2r	.	.	2r	.	.	.	4r	.	4r	16cc/LL)	.	2r	.	2r	.	2r	.	2r	.	2r	.	2r	.
.	.	.	.	.	.	.	.	.	.	.	.	.	.	.	.	.	.	.	.	(16b-X/	.	.	.	.	.	.	.	.	.	.	.	.	.
.	.	.	.	.	.	.	.	.	.	.	.	.	.	.	.	.	.	.	.	16g/	.	.	.	.	.	.	.	.	.	.	.	.	.
.	.	.	.	.	.	.	.	.	.	.	.	.	.	.	.	.	.	.	.	16e/JJ	.	.	.	.	.	.	.	.	.	.	.	.	.
.	.	16r	.	.	.	.	.	.	.	.	.	.	.	.	.	.	16r	.	16r	16c/LL)	.	.	.	.	.	.	.	.	.	.	.	.	.
.	.	(16C#X\LL	.	.	.	.	.	.	.	.	.	.	.	.	.	.	(16c#X\LL	.	(16c#X/LL	(16c#X/	.	.	.	.	.	.	.	.	.	.	.	.	.
.	.	16D\	.	.	.	.	.	.	.	.	.	.	.	.	.	.	16d\	.	16d/	16d/	.	.	.	.	.	.	.	.	.	.	.	.	.
.	.	16E\JJ)	.	.	.	.	.	.	.	.	.	.	.	.	.	.	16e\JJ)	.	16e/JJ)	16e/JJ	.	.	.	.	.	.	.	.	.	.	.	.	.
=23	=23	=23	=23	=23	=23	=23	=23	=23	=23	=23	=23	=23	=23	=23	=23	=23	=23	=23	=23	=23	=23	=23	=23	=23	=23	=23	=23	=23	=23	=23	=23	=23	=23
!	!	!	!	!	!	!	!	!	!	!	!	!	!LO:TX:a:i:rj:t=Solo	!	!	!	!	!	!	!	!	!	!	!	!	!	!	!	!	!	!	!	!
2ryy	.	8F\	p	2r	.	.	4f\	.	.	(8.a/L	.	.	(8.cc\L	Nie-	.	.	16f\	.	16r	16r)	.	2r	.	2r	.	2r	.	2r	.	2r	.	2r	.
.	.	.	.	.	.	.	.	.	.	.	.	.	.	.	.	.	16f\LL	.	16c/LL	16a/LL	p	.	.	.	.	.	.	.	.	.	.	.	.
.	.	8r	.	.	.	.	.	.	.	.	.	.	.	.	.	.	16f\	.	16c/	16a/	.	.	.	.	.	.	.	.	.	.	.	.	.
.	.	.	.	.	.	.	.	.	.	32b-X/LL	.	.	32dd\LL	.	.	.	16f\JJ	.	16c/JJ	16a/JJ	.	.	.	.	.	.	.	.	.	.	.	.	.
.	.	.	.	.	.	.	.	.	.	32a/JJJ)	.	.	32cc\JJJ)	.	.	.	.	.	.	.	.	.	.	.	.	.	.	.	.	.	.	.	.
.	.	16F\	.	.	.	.	8f\	.	.	8g#X/	.	.	8bn\	-chay	.	.	16r	.	16r	16r	.	.	.	.	.	.	.	.	.	.	.	.	.
.	.	16r	.	.	.	.	.	.	.	.	.	.	.	.	.	.	16f\	.	16d/ 16Bn/	16g#X^/	.	.	.	.	.	.	.	.	.	.	.	.	.
.	.	16F\	.	.	.	.	8f\	.	.	8a/	.	.	8cc\	w_Chri-	.	.	16r	.	16r	16r	.	.	.	.	.	.	.	.	.	.	.	.	.
.	.	16r	.	.	.	.	.	.	.	.	.	.	.	.	.	.	16f\	.	16c/	16a/	.	.	.	.	.	.	.	.	.	.	.	.	.
=24	=24	=24	=24	=24	=24	=24	=24	=24	=24	=24	=24	=24	=24	=24	=24	=24	=24	=24	=24	=24	=24	=24	=24	=24	=24	=24	=24	=24	=24	=24	=24	=24	=24
2ryy	.	8FF/	.	2r	.	.	4f\	.	.	4f/	.	.	4a/	-stu-	.	.	16r	.	16r	16r	.	2r	.	2r	.	2r	.	2r	.	2r	.	2r	.
.	.	.	.	.	.	.	.	.	.	.	.	.	.	.	.	.	16f\LL	.	16c/LL	16a/LL	.	.	.	.	.	.	.	.	.	.	.	.	.
.	.	8r	.	.	.	.	.	.	.	.	.	.	.	.	.	.	16f\	.	16c/	16a/	.	.	.	.	.	.	.	.	.	.	.	.	.
.	.	.	.	.	.	.	.	.	.	.	.	.	.	.	.	.	16f\JJ	.	16c/JJ	16a/JJ	.	.	.	.	.	.	.	.	.	.	.	.	.
.	.	8F\	.	.	.	.	8f\	.	.	8f/	.	.	8a/	-sa	.	.	16r	.	16r	16r	.	.	.	.	.	.	.	.	.	.	.	.	.
.	.	.	.	.	.	.	.	.	.	.	.	.	.	.	.	.	16f\LL	.	16c/LL	16a/LL	.	.	.	.	.	.	.	.	.	.	.	.	.
.	.	8r	.	.	.	.	8f\	.	.	8f/	.	.	8a/	i-	.	.	16f\	.	16c/	16a/	.	.	.	.	.	.	.	.	.	.	.	.	.
.	.	.	.	.	.	.	.	.	.	.	.	.	.	.	.	.	16f\JJ	.	16c/JJ	16a/JJ	.	.	.	.	.	.	.	.	.	.	.	.	.
!!LO:PB:g=original
=25	=25	=25	=25	=25	=25	=25	=25	=25	=25	=25	=25	=25	=25	=25	=25	=25	=25	=25	=25	=25	=25	=25	=25	=25	=25	=25	=25	=25	=25	=25	=25	=25	=25
2r	.	8C/	.	2r	.	.	4c\	.	.	(8f/L	.	.	4g/	-dzie-	.	.	16r	.	16r	16r	.	2r	.	2r	.	2r	.	2r	.	2r	.	2r	.
.	.	.	.	.	.	.	.	.	.	.	.	.	.	.	.	.	16c\LL	.	16f/LL	16g/LL	.	.	.	.	.	.	.	.	.	.	.	.	.
.	.	8r	.	.	.	.	.	.	.	16e/L	.	.	.	.	.	.	16c\	.	(16e/	16g/	.	.	.	.	.	.	.	.	.	.	.	.	.
.	.	.	.	.	.	.	.	.	.	16d/JJ)	.	.	.	.	.	.	16c\JJ	.	16d/JJ)	16g/JJ	.	.	.	.	.	.	.	.	.	.	.	.	.
.	.	16C/	.	.	.	.	8.c\	.	.	8.e/	.	.	8.g/	-my	.	.	16r	.	16r	16r	.	.	.	.	.	.	.	.	.	.	.	.	.
.	.	16r	.	.	.	.	.	.	.	.	.	.	.	.	.	.	16c\	.	16e/	16g/	.	.	.	.	.	.	.	.	.	.	.	.	.
.	.	16C/	.	.	.	.	.	.	.	.	.	.	.	.	.	.	16r	.	16r	16r	.	.	.	.	.	.	.	.	.	.	.	.	.
.	.	16r	.	.	.	.	16c\	.	.	16e/	.	.	16cc\	przy-	.	.	16c\	.	16e/	16cc\	.	.	.	.	.	.	.	.	.	.	.	.	.
=26	=26	=26	=26	=26	=26	=26	=26	=26	=26	=26	=26	=26	=26	=26	=26	=26	=26	=26	=26	=26	=26	=26	=26	=26	=26	=26	=26	=26	=26	=26	=26	=26	=26
2r	.	16D\	.	2r	.	.	(8d\L	.	.	(8f/L	.	.	4b\	-kła-	.	.	16r	.	16r	16r	.	2r	.	2r	.	2r	.	2r	.	2r	.	2r	.
.	.	16r	.	.	.	.	.	.	.	.	.	.	.	.	.	.	16d\	.	16f/	16b-X\LL	.	.	.	.	.	.	.	.	.	.	.	.	.
.	.	16E\	.	.	.	.	8e\J)	.	.	8g/J)	.	.	.	.	.	.	16r	.	16r	16r	.	.	.	.	.	.	.	.	.	.	.	.	.
.	.	16r	.	.	.	.	.	.	.	.	.	.	.	.	.	.	16c\	.	16g/	16b-\JJ	.	.	.	.	.	.	.	.	.	.	.	.	.
.	.	8F\	.	.	.	.	8f\	.	.	8f/	.	.	8a\	-dy	.	.	16r	.	16r	16r	.	.	.	.	.	.	.	.	.	.	.	.	.
.	.	.	.	.	.	.	.	.	.	.	.	.	.	.	.	.	16c\LL	.	16f/LL	16a/LL	.	.	.	.	.	.	.	.	.	.	.	.	.
.	.	8r	.	.	.	.	8r	.	.	8r	.	.	8r	.	.	.	16c\	.	16f/	16a/	.	.	.	.	.	.	.	.	.	.	.	.	.
.	.	.	.	.	.	.	.	.	.	.	.	.	.	.	.	.	16c\JJ	.	16f/JJ	16a/JJ	.	.	.	.	.	.	.	.	.	.	.	.	.
=27	=27	=27	=27	=27	=27	=27	=27	=27	=27	=27	=27	=27	=27	=27	=27	=27	=27	=27	=27	=27	=27	=27	=27	=27	=27	=27	=27	=27	=27	=27	=27	=27	=27
2r	.	8D/	.	(4D/	.	.	(4d\	.	.	(4f/	.	.	4.a/	Czy-	.	.	16r	.	16r	16r	.	2r	.	2r	.	2r	.	2r	.	2r	.	2r	.
!	!	!	!	!	!	!	!	!	!	!	!	!	!	!	!	!	!	!	!	!	!LO:HP:a:t=crescendo	!	!	!	!	!	!	!	!	!	!	!	!
.	.	.	.	.	.	.	.	.	.	.	.	.	.	.	.	.	16d\LL	.	16f/LL	16a/LL	<	.	.	.	.	.	.	.	.	.	.	.	.
.	.	8r	.	.	.	.	.	.	.	.	.	.	.	.	.	.	16d\	.	16f/	16a/	.	.	.	.	.	.	.	.	.	.	.	.	.
.	.	.	.	.	.	.	.	.	.	.	.	.	.	.	.	.	16d\JJ	.	16f/JJ	16a/JJ	.	.	.	.	.	.	.	.	.	.	.	.	.
.	.	16C#X/	.	8C#X/)	.	.	8e\)	.	.	8e/)	.	.	.	.	.	.	16r	.	16r	16r	.	.	.	.	.	.	.	.	.	.	.	.	.
.	.	16r	.	.	.	.	.	.	.	.	.	.	.	.	.	.	16c#X\	.	16e/	16a/	.	.	.	.	.	.	.	.	.	.	.	.	.
.	.	16D/	.	8D/	.	.	8d\	.	.	8f/	.	.	8a/	-li	.	.	16r	.	16r	16r	.	.	.	.	.	.	.	.	.	.	.	.	.
.	.	16r	.	.	.	.	.	.	.	.	.	.	.	.	.	.	16d\	.	16f/	16a/	.	.	.	.	.	.	.	.	.	.	.	.	.
=28	=28	=28	=28	=28	=28	=28	=28	=28	=28	=28	=28	=28	=28	=28	=28	=28	=28	=28	=28	=28	=28	=28	=28	=28	=28	=28	=28	=28	=28	=28	=28	=28	=28
*	*	*	*	*	*	*	*	*	*	*	*	*	*	*	*	*	*	*	*	*	*	*^	*	*	*	*^	*	*^	*	*	*	*	*
!	!	!	!	!	!	!	!	!	!	!	!	!	!	!	!	!	!	!	!	!	!LO:DY:a	!	!	!	!	!LO:DY:rj	!	!	!LO:DY:rj	!	!	!LO:DY:rj	!	!	!	!LO:DY:rj
2r	.	8BB-X/	.	4BB-X/	.	.	4d\	.	.	4f/	.	.	4dd\	w_szczę-	.	.	16r	.	16r	16r	f	8r	8r	.	[2B-X\ [2BB-X\	f	[2dd/	[2dd\	f	[2dd/	[2f/	f	[2ff\	.	[2ddd\	f
!	!	!	!	!	!	!	!	!	!	!	!	!	!	!	!	!	!	!	!	!	!LO:HP:a	!	!	!	!	!	!	!	!	!	!	!	!	!	!	!
.	.	.	.	.	.	.	.	.	.	.	.	.	.	.	.	.	16d/LL 16B-X/	.	16f/LL	16dd\LL	<	.	.	.	.	.	.	.	.	.	.	.	.	.	.	.
!	!	!	!	!	!	!	!	!	!	!	!	!	!	!	!	!	!	!	!	!	!	!	!	!LO:DY:rj	!	!	!	!	!	!	!	!	!	!	!	!
.	.	8r	.	.	.	.	.	.	.	.	.	.	.	.	.	.	16d/ 16B-/	.	16f/	16dd\	.	16dd/LL	16dd\LL	f	.	.	.	.	.	.	.	.	.	.	.	.
.	.	.	.	.	.	.	.	.	.	.	.	.	.	.	.	.	16d/JJ 16B-/	.	16f/JJ	16dd\JJ	.	16dd/JJ	16dd\JJ	.	.	.	.	.	.	.	.	.	.	.	.	.
.	.	8BB-/	.	4BB-/	.	.	4d\	.	.	4f/	.	.	4dd\	-ściu	.	.	16r	.	16r	16r	.	8dd/L	8dd\L	.	.	.	.	.	.	.	.	.	.	.	.	.
.	.	.	.	.	.	.	.	.	.	.	.	.	.	.	.	.	16d/LL 16B-/	.	16f/LL	16dd\LL	.	.	.	.	.	.	.	.	.	.	.	.	.	.	.	.
.	.	8r	.	.	.	.	.	.	.	.	.	.	.	.	.	.	16d/ 16B-/	.	16f/	16dd\	[	8dd/J	8dd\J	.	.	.	.	.	.	.	.	.	.	.	.	.
.	.	.	.	.	.	.	.	.	.	.	.	.	.	.	.	.	16d/JJ 16B-/	.	16f/JJ	16dd\JJ	.	.	.	.	.	.	.	.	.	.	.	.	.	.	.	.
!!LO:PB:g=original
=29	=29	=29	=29	=29	=29	=29	=29	=29	=29	=29	=29	=29	=29	=29	=29	=29	=29	=29	=29	=29	=29	=29	=29	=29	=29	=29	=29	=29	=29	=29	=29	=29	=29	=29	=29	=29
!	!	!	!	!	!	!	!	!	!	!	!	!	!	!	!	!	!	!	!	!	!	!	!	!	!	!	!	!	!	!	!	!	!LO:TX:a:t=P:problem:t. 29, 30 po poprawkach głównego skryptora	!	!LO:TX:a:t=P:problem:takt po poprawkach głównego skryptora; po poprawkach także t. 30, 39	!
2r	.	8BB-X/	.	4B-X\	.	.	4d\	.	.	4f/	.	.	4.dd\	czy	.	.	16r	.	16r	16r	.	4dd/	4dd\	.	2B-X\] 2BB-\]	.	2dd/]	2dd\]	.	2dd/]	4f\]	.	4ff\]	.	4.ddd\]	.
.	.	.	.	.	.	.	.	.	.	.	.	.	.	.	.	.	16d\LL 16B-X\	.	16f/LL	16dd\LL	.	.	.	.	.	.	.	.	.	.	.	.	.	.	.	.
.	.	8r	.	.	.	.	.	.	.	.	.	.	.	.	.	.	16d\ 16B-\	.	16f/	16dd\	.	.	.	.	.	.	.	.	.	.	.	.	.	.	.	.
.	.	.	.	.	.	.	.	.	.	.	.	.	.	.	.	.	16d\JJ 16B-\	.	16f/JJ	16dd\JJ	.	.	.	.	.	.	.	.	.	.	.	.	.	.	.	.
!	!	!	!	!	!	!	!	!	!	!	!	!	!	!	!	!	!	!	!	!	!LO:HP:a	!	!	!	!	!	!	!	!	!	!	!	!	!	!	!
.	.	8BB-/	.	4B-\	.	.	4d\	.	.	4e/	.	.	.	.	.	.	16r	.	16r	16r	>	4r	4rcyy	.	.	.	.	.	.	.	4e\	.	4ee\	.	.	.
.	.	.	.	.	.	.	.	.	.	.	.	.	.	.	.	.	16d\LL 16B-\	.	16e/LL	16g#X/LL	.	.	.	.	.	.	.	.	.	.	.	.	.	.	.	.
.	.	8r	.	.	.	.	.	.	.	.	.	.	8g#X/	w_nie-	.	.	16d\ 16B-\	.	16e/	16g#/	.	.	.	.	.	.	.	.	.	.	.	.	.	.	8gg#X\	.
.	.	.	.	.	.	.	.	.	.	.	.	.	.	.	.	.	16d\JJ 16B-\	.	16e/JJ	16g#/JJ	.	.	.	.	.	.	.	.	.	.	.	.	.	.	.	.
*	*	*	*	*	*	*	*	*	*	*	*	*	*	*	*	*	*	*	*	*	*	*v	*v	*	*	*	*	*	*	*	*	*	*	*	*	*
=30	=30	=30	=30	=30	=30	=30	=30	=30	=30	=30	=30	=30	=30	=30	=30	=30	=30	=30	=30	=30	=30	=30	=30	=30	=30	=30	=30	=30	=30	=30	=30	=30	=30	=30	=30
2r	.	8AA/	.	4A\	.	.	4d\	.	.	4e/	.	.	4a/	-do-	.	.	16r	.	16r	16r	.	2r	.	4.A\ 4.AA\	.	4.ee/	4dd\	.	4dd/	4.e\	.	4.ee\	.	4.aa\	.
.	.	.	.	.	.	.	.	.	.	.	.	.	.	.	.	.	16d\LL	.	16e/LL	16a/LL	]	.	.	.	.	.	.	.	.	.	.	.	.	.	.
.	.	8r	.	.	.	.	.	.	.	.	.	.	.	.	.	.	16d\	.	16e/	16a/	.	.	.	.	.	.	.	.	.	.	.	.	.	.	.
.	.	.	.	.	.	.	.	.	.	.	.	.	.	.	.	.	16d\JJ	.	16e/JJ	16a/JJ	.	.	.	.	.	.	.	.	.	.	.	.	.	.	.
.	.	8A\	.	8A\	.	.	8c#X\	.	.	8e/	.	.	8a/	-li	.	.	8c#X\	.	8e/	8a/	.	.	.	.	.	.	8cc#X\	.	8cc#X/	.	.	.	.	.	.
!	!	!	!	!LO:TX:a:i:t=tutti	!	!	!	!	!	!	!	!	!	!	!	!	!	!	!	!	!	!	!	!	!	!	!	!	!	!	!	!	!	!	!
.	.	8AA/	.	8AA/	On	.	8r	.	.	8r	.	.	8r	.	.	.	8r	.	8r	8r	.	.	.	8r	.	8r	8r	.	8r	8rcyy	.	8r	.	8r	.
*	*	*	*	*	*	*	*	*	*	*	*	*	*	*	*	*	*	*	*	*	*	*	*	*	*	*v	*v	*	*	*	*	*	*	*	*
*	*	*	*	*	*	*	*	*	*	*	*	*	*	*	*	*	*	*	*	*	*	*	*	*	*	*	*	*v	*v	*	*	*	*	*
=31	=31	=31	=31	=31	=31	=31	=31	=31	=31	=31	=31	=31	=31	=31	=31	=31	=31	=31	=31	=31	=31	=31	=31	=31	=31	=31	=31	=31	=31	=31	=31	=31	=31
2r	.	4D/	.	4D\	nam	.	4r	.	.	2r	.	.	2r	.	.	.	4r	.	2r	2r	.	2r	.	2r	.	2r	.	2r	.	2r	.	2r	.
.	.	[4D/	.	4D\	po-	.	8r	.	.	.	.	.	.	.	.	.	8r	.	.	.	.	.	.	.	.	.	.	.	.	.	.	.	.
!	!	!	!	!	!	!	!LO:TX:a:i:t=tutti	!	!	!	!	!	!	!	!	!	!	!	!	!	!	!	!	!	!	!	!	!	!	!	!	!	!
.	.	.	.	.	.	.	8d\	On	.	.	.	.	.	.	.	.	8d\	.	.	.	.	.	.	.	.	.	.	.	.	.	.	.	.
=32	=32	=32	=32	=32	=32	=32	=32	=32	=32	=32	=32	=32	=32	=32	=32	=32	=32	=32	=32	=32	=32	=32	=32	=32	=32	=32	=32	=32	=32	=32	=32	=32	=32
2r	.	(8D/L]	.	(8D\L	-ka-	.	4e\	nam	.	4r	.	.	2r	.	.	.	4e\	.	4r	2r	.	2r	.	2r	.	2r	.	2r	.	2r	.	2r	.
.	.	16C#X/L	.	16C#X\L	.	.	.	.	.	.	.	.	.	.	.	.	.	.	.	.	.	.	.	.	.	.	.	.	.	.	.	.	.
.	.	16BBn/JJ	.	16BBn\JJ)	.	.	.	.	.	.	.	.	.	.	.	.	.	.	.	.	.	.	.	.	.	.	.	.	.	.	.	.	.
!	!	!LO:SIC:s=8C#/L):v	!	!	!	!	!	!	!	!	!	!	!	!	!	!	!	!	!	!	!	!	!	!	!	!	!	!	!	!	!	!	!
.	.	8Cn/L)	.	8C#\	-zał	.	4e\	po-	.	8r	.	.	.	.	.	.	[4e\	.	8r	.	.	.	.	.	.	.	.	.	.	.	.	.	.
!	!	!LO:SIC:s=8C#/J|:v	!	!	!	!	!	!	!	!LO:TX:a:i:t=tutti	!	!	!	!	!	!	!	!	!	!	!	!	!	!	!	!	!	!	!	!	!	!	!
.	.	8C/J|	.	8C#\	i	.	.	.	.	8e/	On	.	.	.	.	.	.	.	8e/|	.	.	.	.	.	.	.	.	.	.	.	.	.	.
=33	=33	=33	=33	=33	=33	=33	=33	=33	=33	=33	=33	=33	=33	=33	=33	=33	=33	=33	=33	=33	=33	=33	=33	=33	=33	=33	=33	=33	=33	=33	=33	=33	=33
2r	.	4D/	.	4D\	wzo-	.	4e\	-ka-	.	4f/	nam	.	4r	.	.	.	(4e\]	.	4f/|	4r	.	2r	.	2r	.	2r	.	2r	.	2r	.	2r	.
.	.	4D/	.	8D\	-ry	.	8d\	-zał	.	4f/	po-	.	8r	.	.	.	8d\L)	.	(4f/	8r	.	.	.	.	.	.	.	.	.	.	.	.	.
!	!	!	!	!	!	!	!	!	!	!	!	!	!LO:TX:a:i:t=tutti	!	!	!	!	!	!	!	!	!	!	!	!	!	!	!	!	!	!	!	!
.	.	.	.	8D\	i	.	8A\	i	.	.	.	.	8f/	On	.	.	8A\J|	.	.	8f/	.	.	.	.	.	.	.	.	.	.	.	.	.
=34	=34	=34	=34	=34	=34	=34	=34	=34	=34	=34	=34	=34	=34	=34	=34	=34	=34	=34	=34	=34	=34	=34	=34	=34	=34	=34	=34	=34	=34	=34	=34	=34	=34
!	!	!	!	!	!	!	!	!	!	!	!	!	!LO:TX:a:t=P:problem:takt po poprawkach głównego skryptora (tekst); po poprawkach także t. 60-61 (wymazane nuty)	!	!	!	!	!	!	!	!	!	!	!	!	!	!	!	!	!	!	!	!
2r	.	4.Cn/	.	4Cn/	śla-	.	4c\	wzo-	.	(8f/L	-ka-	.	4g/	nam	.	.	4c\	.	8f/L	4g/	.	2r	.	2r	.	2r	.	2r	.	2r	.	2r	.
.	.	.	.	.	.	.	.	.	.	16e/L	.	.	.	.	.	.	.	.	16e/L	.	.	.	.	.	.	.	.	.	.	.	.	.	.
.	.	.	.	.	.	.	.	.	.	16d/JJ)	.	.	.	.	.	.	.	.	16d/JJ)	.	.	.	.	.	.	.	.	.	.	.	.	.	.
.	.	.	.	8C/	-dy	.	8c\	-ry	.	8e/	-zał	.	4g/	po-	.	.	4c\	.	8e/L	4g/	.	.	.	.	.	.	.	.	.	.	.	.	.
.	.	8C/	.	8C/	on	.	8c\	i	.	8e/	i	.	.	.	.	.	.	.	8e'/J	.	.	.	.	.	.	.	.	.	.	.	.	.	.
!!LO:PB:g=original
=35	=35	=35	=35	=35	=35	=35	=35	=35	=35	=35	=35	=35	=35	=35	=35	=35	=35	=35	=35	=35	=35	=35	=35	=35	=35	=35	=35	=35	=35	=35	=35	=35	=35
*	*	*	*	*	*	*	*	*	*	*	*	*	*	*	*	*	*	*	*	*	*	*	*	*^	*	*	*	*	*	*	*	*	*
!	!	!	!	!	!	!	!	!	!	!LO:TX:a:t=P:problem:takt po poprawkach głównego skryptora; po poprawkach także t. 60-61 (wymazane nuty)	!	!	!	!	!	!	!	!	!LO:TX:a:t=P:problem:na (4e/ kończy się łuk, który nie ma początku	!	!	!	!	!	!	!	!	!	!	!	!	!	!	!
2r	.	4F\	.	4F\	nam	.	4A\	śla-	.	4e/	wzo-	.	4a/	-ka-	.	.	2A/	.	(4e/	4a/|	.	2r	.	4r	4rEEyy	.	2r	.	2r	.	2r	.	2r	.
.	.	4F\	.	4F\	po-	.	8A\	-dy	.	8d/	-ry	.	8a/	-zał	.	.	.	.	8d/L)	[>4a/	.	.	.	8r	8rEEyy	.	.	.	.	.	.	.	.	.
.	.	.	.	.	.	.	8A\	on	.	8d/	i	.	8a/	i	.	.	.	.	8d'/J	.	.	.	.	8A/	8F\	p	.	.	.	.	.	.	.	.
*	*	*	*	*	*	*	*	*	*	*	*	*	*	*	*	*	*	*	*	*	*	*	*	*v	*v	*	*	*	*	*	*	*	*	*
=36	=36	=36	=36	=36	=36	=36	=36	=36	=36	=36	=36	=36	=36	=36	=36	=36	=36	=36	=36	=36	=36	=36	=36	=36	=36	=36	=36	=36	=36	=36	=36	=36	=36
*	*	*	*	*	*	*	*	*	*	*	*	*	*	*	*	*	*	*	*	*	*	*	*	*	*	*	*	*^	*	*	*	*	*
2r	.	4.E\	.	4E\	-ka-	.	[4Bn\	nam	.	4d/	śla-	.	(8a/L	wzo-	.	.	4.Bn/	.	4.d/	8a/L]	.	2r	.	4.Bn\ 4.E\	.	2r	.	4r	4rcyy	.	2r	.	2r	.
.	.	.	.	.	.	.	.	.	.	.	.	.	16g#X/L	.	.	.	.	.	.	(16g#X/L	.	.	.	.	.	.	.	.	.	.	.	.	.	.
.	.	.	.	.	.	.	.	.	.	.	.	.	16f#X/JJ)	.	.	.	.	.	.	16f#X/JJ	.	.	.	.	.	.	.	.	.	.	.	.	.	.
.	.	.	.	8E\	-zał	.	8B\]	.	.	8d/	-dy	.	8g#/	-ry	.	.	.	.	.	8g#/L)	.	.	.	.	.	.	.	8r	8rcyy	.	.	.	.	.
!	!	!	!	!	!	!	!	!	!	!	!	!	!	!	!	!	!	!	!	!	!	!	!	!	!	!	!	!LO:SIC:s=8g#/:v	!	!	!	!	!	!
.	.	8E\	.	8E\	po-	.	8B\	po-	.	8d/	po-	.	8g#/	i	.	.	8B/	.	8d/	8g#/J|	.	.	.	8B\ 8E\	.	.	.	8g/	8d\	.	.	.	.	.
=37	=37	=37	=37	=37	=37	=37	=37	=37	=37	=37	=37	=37	=37	=37	=37	=37	=37	=37	=37	=37	=37	=37	=37	=37	=37	=37	=37	=37	=37	=37	=37	=37	=37	=37
2r	.	4A\	.	4A\	-ka-	.	4c\	-ka-	.	4c/	-ka-	.	4a/	śla-	.	.	4c/	.	(4c/	[4a/	.	2r	.	4A\	<	2r	.	4a/	4c\	<	4r	.	2r	.
.	.	4A\	.	8A\	-zał	.	8c\	-zał	.	8e/	-zał	.	8a/	-dy	.	.	([4c/	.	8e/L)	8a/L]	.	.	.	4A\	.	.	.	[4cc/	4e\	.	8r	.	.	.
!	!	!	!	!	!	!	!	!	!	!	!	!	!	!	!	!	!	!	!	!	!	!	!	!	!	!	!	!	!	!	!	!LO:DY:rj	!	!
.	.	.	.	8A\	i	.	8c\	i	.	8e/	i	.	8cc\	i	.	.	.	.	8e/J	8cc/J	.	.	.	.	.	.	.	.	.	.	8cc\	p	.	.
=38	=38	=38	=38	=38	=38	=38	=38	=38	=38	=38	=38	=38	=38	=38	=38	=38	=38	=38	=38	=38	=38	=38	=38	=38	=38	=38	=38	=38	=38	=38	=38	=38	=38	=38
!	!	!	!	!	!	!	!	!	!	!	!	!	!	!	!	!	!	!	!	!	!	!	!	!	!	!LO:N:vis=4	!	!	!	!	!	!	!	!
4r	.	4.G\	.	4G\	wzo-	.	(8c\L	wzo-	.	4g/	wzo-	.	4dd\	wzo-	.	.	8c/L]	.	4.g/	4.dd\	.	2r	.	4.G\	.	4.r	.	8cc/L]	2g\	.	(4.dd\	<	2r	.
.	.	.	.	.	.	.	16Bn\L	.	.	.	.	.	.	.	.	.	16Bn/L	.	.	.	.	.	.	.	.	.	.	16b/L	.	.	.	.	.	.
.	.	.	.	.	.	.	16A\JJ)	.	.	.	.	.	.	.	.	.	16A/JJ	.	.	.	.	.	.	.	.	.	.	16a/JJ	.	.	.	.	.	.
8r	.	.	.	8G\	-ry	.	8B\	-ry	.	8g/	-ry	.	8dd\	-ry	.	.	8B/L)	.	.	.	.	.	.	.	.	.	.	4b/	.	[	.	.	.	.
!LO:SIC:s=8GG\	!	!	!	!	!	!	!	!	!	!	!	!	!	!	!	!	!	!	!	!	!	!	!	!	!	!	!	!	!	!	!	!	!	!
8Re\	.	8GG/	.	8G\	i	.	8B\	i	.	8g/	i	.	8gg\	i	.	.	8B'/J	.	8g/	8gg\	.	.	.	8G\ 8GG\	[	8dd/ 8g/	.	.	.	.	8gg\)	[	.	.
=39	=39	=39	=39	=39	=39	=39	=39	=39	=39	=39	=39	=39	=39	=39	=39	=39	=39	=39	=39	=39	=39	=39	=39	=39	=39	=39	=39	=39	=39	=39	=39	=39	=39	=39
*	*	*	*	*	*	*	*	*	*	*	*	*	*	*	*	*	*	*	*	*	*	*	*	*	*	*^	*	*	*	*	*	*	*	*
*tremolo	*	*	*	*	*	*	*	*	*	*	*	*	*	*	*	*	*	*	*	*	*	*	*	*	*	*	*	*	*	*	*	*	*	*	*
!LO:SIC:s=32C/LLL	!	!	!	!	!	!	!	!	!	!	!	!	!	!	!	!	!	!	!	!	!	!	!	!	!	!	!	!	!	!	!LO:DY:rj	!	!	!	!
32Re/LLL	.	16C\LL	.	4C/	śla-	.	4c\	śla-	.	4g/	śla-	.	4ee\	śla-	.	.	16c/LL	.	16g/LL	16ee/LL	.	4r	.	4.G\ 4.C\	.	4.ee/	4.cc\	.	4.cc/	4.g\	f	4.ee\	.	4r	.
!LO:SIC:s=32C/	!	!	!	!	!	!	!	!	!	!	!	!	!	!	!	!	!	!	!	!	!	!	!	!	!	!	!	!	!	!	!	!	!	!	!
32Re/	.	.	.	.	.	.	.	.	.	.	.	.	.	.	.	.	.	.	.	.	.	.	.	.	.	.	.	.	.	.	.	.	.	.	.
!LO:SIC:s=32C/	!	!	!	!	!	!	!	!	!	!	!	!	!	!	!	!	!	!	!	!	!	!	!	!	!	!	!	!	!	!	!	!	!	!	!
32Re/	.	16c\	.	.	.	.	.	.	.	.	.	.	.	.	.	.	16c/	.	16cc/	16cc/	.	.	.	.	.	.	.	.	.	.	.	.	.	.	.
!LO:SIC:s=32C/	!	!	!	!	!	!	!	!	!	!	!	!	!	!	!	!	!	!	!	!	!	!	!	!	!	!	!	!	!	!	!	!	!	!	!
32Re/	.	.	.	.	.	.	.	.	.	.	.	.	.	.	.	.	.	.	.	.	.	.	.	.	.	.	.	.	.	.	.	.	.	.	.
!LO:SIC:s=32C/	!	!	!	!	!	!	!	!	!	!	!	!	!	!	!	!	!	!	!	!	!	!	!	!	!	!	!	!	!	!	!	!	!	!	!
32Re/	.	16G\	.	.	.	.	.	.	.	.	.	.	.	.	.	.	16G/	.	16g/	16g/	.	.	.	.	.	.	.	.	.	.	.	.	.	.	.
!LO:SIC:s=32C/	!	!	!	!	!	!	!	!	!	!	!	!	!	!	!	!	!	!	!	!	!	!	!	!	!	!	!	!	!	!	!	!	!	!	!
32Re/	.	.	.	.	.	.	.	.	.	.	.	.	.	.	.	.	.	.	.	.	.	.	.	.	.	.	.	.	.	.	.	.	.	.	.
!LO:SIC:s=32C/	!	!	!	!	!	!	!	!	!	!	!	!	!	!	!	!	!	!	!	!	!	!	!	!	!	!	!	!	!	!	!	!	!	!	!
32Re/	.	16E\JJ	.	.	.	.	.	.	.	.	.	.	.	.	.	.	16E/JJ	.	16e/JJ	16e/JJ	.	.	.	.	.	.	.	.	.	.	.	.	.	.	.
!LO:SIC:s=32C/JJJ	!	!	!	!	!	!	!	!	!	!	!	!	!	!	!	!	!	!	!	!	!	!	!	!	!	!	!	!	!	!	!	!	!	!	!
32Re/JJJ	.	.	.	.	.	.	.	.	.	.	.	.	.	.	.	.	.	.	.	.	.	.	.	.	.	.	.	.	.	.	.	.	.	.	.
*Xtremolo	*	*	*	*	*	*	*	*	*	*	*	*	*	*	*	*	*	*	*	*	*	*	*	*	*	*	*	*	*	*	*	*	*	*	*
!LO:SIC:s=8C/	!	!	!	!	!	!	!	!	!	!	!	!	!	!	!	!	!	!	!	!	!	!	!	!	!	!	!	!	!	!	!	!	!	!	!
8Re/	.	8C\	.	8C/	-dy	.	8c\	-dy	.	8g/	-dy	.	8ee\	-dy	.	.	8C/	.	8c/	8c/	.	8r	.	.	.	.	.	.	.	.	.	.	.	8r	.
!	!	!	!LO:DY:a:rj	!	!	!LO:DY:a:rj	!	!	!LO:DY:a:rj	!	!	!LO:DY:rj	!	!	!	!LO:DY:a:rj	!	!LO:DY:a:rj	!	!	!LO:DY:rj	!	!	!	!LO:DY:rj	!	!	!LO:DY:rj	!	!	!	!	!LO:DY:rj	!LO:TX:a:t=P:problem:być może 8aa\|, niższa dodana linia jest trochę wytarta	!LO:DY:rj
8r	.	8C\	f	8C/	Jak	f	8c\	Jak	f	8cc\	Jak	f	8cc\	Jak	.	f	8c\	f	8cc\	8cc\|	f	8c/	f	8c\ 8C\	f	8cc/	8cc\	f	8cc/	8cc\	.	8cc\|	f	8ccc\|	f
=40	=40	=40	=40	=40	=40	=40	=40	=40	=40	=40	=40	=40	=40	=40	=40	=40	=40	=40	=40	=40	=40	=40	=40	=40	=40	=40	=40	=40	=40	=40	=40	=40	=40	=40	=40
*	*	*^	*	*	*	*	*	*	*	*	*	*	*	*	*	*	*	*	*	*	*	*	*	*	*	*	*	*	*	*	*	*	*	*	*
2ryy	.	4F/	4ryy	.	4F\	żyć	.	4f\	żyć	.	4f/	żyć	.	4ff\	żyć	.	.	4f\	.	4ff\	4ff\|	.	4f/	.	4f\ 4F\	.	4ff/	4ff\	.	4ff/	4ff\	.	4ff\|	.	4fff\|	.
!	!	!	!	!	!LO:TX:a:i:t=Solo	!	!	!LO:TX:a:i:t=Solo	!	!	!LO:TX:a:i:rj:t=Solo	!	!	!LO:TX:a:i:t=Solo	!	!	!	!	!	!	!	!LO:HP:a	!	!	!	!	!	!	!	!	!	!	!	!	!	!
.	.	(<8A/L	4rEE	.	8A\	we-	.	8A\	.	.	8a\	we-	.	8a\	we-	.	.	(8A/L	.	(8a\L	(8a\L	>	4r	.	4r	.	4r	4r	.	4r	4r	.	4r	.	4r	.
!	!	!	!	!	!	!	!LO:DY:a	!	!	!	!	!	!	!	!	!	!	!	!	!	!	!	!	!	!	!	!	!	!	!	!	!	!	!	!	!
.	.	8B-X/J	.	.	8B-X\	-dług	>	8B-X\	.	.	8b-X\	-dług	.	8b-X\	-dług	.	>	8B-/J	.	8b-X\J	8b-X\J	.	.	.	.	.	.	.	.	.	.	.	.	.	.	.
*	*	*	*	*	*	*	*	*	*	*	*	*	*	*	*	*	*	*	*	*	*	*	*	*	*	*	*v	*v	*	*	*	*	*	*	*	*
*	*	*	*	*	*	*	*	*	*	*	*	*	*	*	*	*	*	*	*	*	*	*	*	*	*	*	*	*	*v	*v	*	*	*	*	*
=41	=41	=41	=41	=41	=41	=41	=41	=41	=41	=41	=41	=41	=41	=41	=41	=41	=41	=41	=41	=41	=41	=41	=41	=41	=41	=41	=41	=41	=41	=41	=41	=41	=41	=41
!	!	!	!	!	!	!	!	!	!	!	!	!	!	!	!	!	!	!	!	!	!	!	!	!	!	!	!	!	!	!	!	!	!LO:TX:a:t=P:problem:po tym takcie cała strona skreślona	!
2ryy	.	8c/L	2rGG	.	8c\	Oj-	.	8c\	.	.	8cc\	Oj-	.	8cc\	Oj-	.	.	8c/L	.	8cc/L	8cc/L	.	2r	.	2r	.	2r	.	2r	.	2r	.	2r	.
.	.	8A/	.	.	8A\	-ca	.	8A\	.	.	8a\	-ca	.	8a/	-ca	.	.	8A/	.	8a/	8a/	.	.	.	.	.	.	.	.	.	.	.	.	.
.	.	8F/	.	.	8F\	Oj-	.	8F/	.	.	8f/	Oj-	.	8f/	Oj-	.	.	8F/	.	8f/	8f/	.	.	.	.	.	.	.	.	.	.	.	.	.
!	!	!	!	!	!	!	!	!	!	!	!	!	!	!	!	!	!	!	!	!LO:TX:a:t=P:problem:łuk kończy się na kresce taktowej	!	!	!	!	!	!	!	!	!	!	!	!	!	!
.	.	8D/J)	.	.	8D\	-ca	]]	8D/	.	.	8d/	-ca	.	8d/	-ca	.	]]	8D/J)	.	8d/J)	8d/J)	]	.	.	.	.	.	.	.	.	.	.	.	.
!!LO:PB:g=original
=42	=42	=42	=42	=42	=42	=42	=42	=42	=42	=42	=42	=42	=42	=42	=42	=42	=42	=42	=42	=42	=42	=42	=42	=42	=42	=42	=42	=42	=42	=42	=42	=42	=42	=42
!	!	!	!	!LO:DY:a:rj	!	!	!	!	!	!	!	!	!	!	!	!	!LO:DY:a:rj	!	!	!	!	!LO:DY:a	!	!	!	!	!	!	!	!	!	!	!	!
2r	.	(2C/	2C\	pp	2C/	.	.	(4c\	.	.	(4c/	.	.	(8c/	wo-	.	p	(4C/	.	(>4c/	(>8c/	pp	2r	.	2r	.	2r	.	2r	.	2r	.	2r	.
.	.	.	.	.	.	.	.	.	.	.	.	.	.	4a/	.	.	.	.	.	.	4a/	.	.	.	.	.	.	.	.	.	.	.	.	.
.	.	.	.	.	.	.	.	4B-X\)	.	.	4e/)	.	.	.	.	.	.	4c\	.	4e/ 4B-X/	.	.	.	.	.	.	.	.	.	.	.	.	.	.
.	.	.	.	.	.	.	.	.	.	.	.	.	.	8g/)	.	.	.	.	.	.	8g/)	.	.	.	.	.	.	.	.	.	.	.	.	.
=43	=43	=43	=43	=43	=43	=43	=43	=43	=43	=43	=43	=43	=43	=43	=43	=43	=43	=43	=43	=43	=43	=43	=43	=43	=43	=43	=43	=43	=43	=43	=43	=43	=43	=43
*	*	*	*	*	*	*	*	*	*	*	*	*	*	*	*	*	*	*	*	*	*	*^	*	*	*	*	*	*	*	*	*	*	*	*
2r	.	4F/)	4F\	.	4F\	.	.	4A\	.	.	4f/	.	.	4f/	-li	.	.	4c/ 4F/)	.	4f/ 4A/)	4f/	.	.	4r	.	4r	.	2r	.	4r	.	4r	.	4r	.
!	!	!	!	!LO:DY:a:rj	!	!	!	!	!	!	!	!	!	!	!	!	!	!	!LO:DY:a:rj	!	!	!LO:DY:a:rj	!LO:DY:rj	!	!	!	!LO:DY:rj	!	!	!	!LO:DY:rj	!	!LO:DY:rj	!	!LO:DY:rj
.	.	(8F\L	4ryy	f	4r	.	.	4r	.	.	4r	.	.	4r	.	.	.	(8f\L	f	(8f/L	(8f/L	f	f	(8f/L	.	(8F\L	f	.	.	(8f/L	f	(8ff\L	f	(8ff\L	f
.	.	16E\L	.	.	.	.	.	.	.	.	.	.	.	.	.	.	.	16e\L	.	16e/L	16e/L	.	.	16e/L	.	16E\L	.	.	.	16e/L	.	16ee\L	.	16ee\L	.
!	!	!LO:TX:a:t=P:problem:łuk kończy się na kresce taktowej	!	!	!	!	!	!	!	!	!	!	!	!	!	!	!	!	!	!	!	!	!	!	!	!	!	!	!	!	!	!	!	!	!
.	.	16D\JJ)	.	.	.	.	.	.	.	.	.	.	.	.	.	.	.	16d\JJ)	.	16f/JJ)	16f/JJ)	.	.	16f/JJ 16d/)	.	16D\JJ)	.	.	.	16f/JJ)	.	16ff\JJ)	.	16ff\JJ	.
*	*	*	*	*	*	*	*	*	*	*	*	*	*	*	*	*	*	*	*	*	*	*v	*v	*	*	*	*	*	*	*	*	*	*	*	*
*	*	*v	*v	*	*	*	*	*	*	*	*	*	*	*	*	*	*	*	*	*	*	*	*	*	*	*	*	*	*	*	*	*	*	*
=44||	=44||	=44||	=44||	=44||	=44||	=44||	=44||	=44||	=44||	=44||	=44||	=44||	=44||	=44||	=44||	=44||	=44||	=44||	=44||	=44||	=44||	=44||	=44||	=44||	=44||	=44||	=44||	=44||	=44||	=44||	=44||	=44||	=44||
!	!	!	!	!LO:TX:a:i:t=tutti	!	!	!LO:TX:a:i:t=tutti	!	!	!LO:TX:a:i:t=tutti	!	!	!LO:TX:a:i:t=tutti	!	!	!	!	!	!	!	!	!	!	!LO:TX:a:t=P:problem:być może 4C\ i 8C\L połączone bardzo wytartą ligaturą	!	!	!	!	!	!	!	!	!
2ryy	.	8C/	.	4C/	Bo-	.	4c\	.	.	4e/	.	.	4g/	.	.	.	16r	.	16r	16r	.	4g/ 4e/	.	4C\	.	[4g/ [4c/	.	(4g/ (4e/	.	(4ee\	.	(4gg\)	.
.	.	.	.	.	.	.	.	.	.	.	.	.	.	.	.	.	16c\LL	.	16e/LL	16g/LL	.	.	.	.	.	.	.	.	.	.	.	.	.
.	.	8r	.	.	.	.	.	.	.	.	.	.	.	.	.	.	16c\	.	16e/	16g/	.	.	.	.	.	.	.	.	.	.	.	.	.
.	.	.	.	.	.	.	.	.	.	.	.	.	.	.	.	.	16c\JJ	.	16e/JJ	16g/JJ	.	.	.	.	.	.	.	.	.	.	.	.	.
.	.	16C/	.	8C/	-ży	.	8G/	.	.	8e/	.	.	8e/	.	.	.	16r	.	16r	16r	.	8e/L 8c/	.	8C\L	.	8g/]L 8c/]	.	8e/L 8c/))	.	8cc\L)	.	8ee\L)	.
.	.	16r	.	.	.	.	.	.	.	.	.	.	.	.	.	.	16G/	.	16c/	16e/	.	.	.	.	.	.	.	.	.	.	.	.	.
.	.	16C/	.	8C/	ba-	.	8G/	.	.	8e/	.	.	8cc\	.	.	.	16r	.	16r	16r	.	8cc/J 8e/	.	8C\J	.	8g/'J 8c'/	.	8cc/J| 8e/|	.	8ee'\J	.	8ccc\J|	.
.	.	16r	.	.	.	.	.	.	.	.	.	.	.	.	.	.	16G/	.	16e/	16cc\	.	.	.	.	.	.	.	.	.	.	.	.	.
=45	=45	=45	=45	=45	=45	=45	=45	=45	=45	=45	=45	=45	=45	=45	=45	=45	=45	=45	=45	=45	=45	=45	=45	=45	=45	=45	=45	=45	=45	=45	=45	=45	=45
*	*	*	*	*	*	*	*	*	*	*	*	*	*	*	*	*	*	*	*	*	*	*^	*	*	*	*	*	*^	*	*	*	*	*
2ryy	.	8C/	.	4C/	-ran-	.	4G/	.	.	4e/	.	.	4cc\	.	.	.	16r	.	16r	16r	.	4cc/	4.e\	.	4.C\	.	4.g/ 4.c/	>]	4cc/	4.e\	>	4.ee\	.	(4ccc\	>
.	.	.	.	.	.	.	.	.	.	.	.	.	.	.	.	.	16G/LL	.	16e/LL	16cc\LL	.	.	.	.	.	.	.	.	.	.	.	.	.	.	.
.	.	8r	.	.	.	.	.	.	.	.	.	.	.	.	.	.	16G/	.	16e/	16cc\	.	.	.	.	.	.	.	.	.	.	.	.	.	.	.
.	.	.	.	.	.	.	.	.	.	.	.	.	.	.	.	.	16G/JJ	.	16e/JJ	16cc\JJ	.	.	.	.	.	.	.	.	.	.	.	.	.	.	.
.	.	8C/	.	8C/	-ku	.	8G/	.	.	8e/	.	.	8g/	.	.	.	16r	.	16r	16r	.	8g/	.	.	.	.	.	.	8g/	.	]	.	.	8gg\)	]
.	.	.	.	.	.	.	.	.	.	.	.	.	.	.	.	.	16G/LL	.	16e/LL	16g/LL	.	.	.	.	.	.	.	.	.	.	.	.	.	.	.
.	.	8r	.	8C/	coś	.	8c\	.	.	8e/	.	.	8g/	.	.	.	16c/	.	16e/	16g/	.	8raa	8r	.	8r	.	8r	.	8rcc	8r	.	8r	.	8r	.
.	.	.	.	.	.	.	.	.	.	.	.	.	.	.	.	.	16c/JJ	.	16e/JJ	16g/JJ	.	.	.	.	.	.	.	.	.	.	.	.	.	.	.
*	*	*	*	*	*	*	*	*	*	*	*	*	*	*	*	*	*	*	*	*	*	*v	*v	*	*	*	*	*	*v	*v	*	*	*	*	*
=46	=46	=46	=46	=46	=46	=46	=46	=46	=46	=46	=46	=46	=46	=46	=46	=46	=46	=46	=46	=46	=46	=46	=46	=46	=46	=46	=46	=46	=46	=46	=46	=46	=46
2ryy	.	2ryy	.	4D/	zma-	.	4A/	.	.	4d/	.	.	4f/	.	.	.	2ryy	.	2ryy	2ryy	.	2ryy	.	2ryy	.	2ryy	.	2ryy	.	2r	.	2r	.
.	.	.	.	8.C/	-zał	.	8.A-X/	.	.	8.d/	.	.	8.f/	.	.	.	.	.	.	.	.	.	.	.	.	.	.	.	.	.	.	.	.
.	.	.	.	16BB/	grzech	.	16G/	.	.	16d/	.	.	16g/	.	.	.	.	.	.	.	.	.	.	.	.	.	.	.	.	.	.	.	.
=47	=47	=47	=47	=47	=47	=47	=47	=47	=47	=47	=47	=47	=47	=47	=47	=47	=47	=47	=47	=47	=47	=47	=47	=47	=47	=47	=47	=47	=47	=47	=47	=47	=47
2ryy	.	2ryy	.	4C/	świa-	.	4G/	.	.	4c/	.	.	4e/	.	.	.	2ryy	.	2ryy	2ryy	.	2ryy	.	2ryy	.	2ryy	.	2ryy	.	2r	.	2r	.
.	.	.	.	8GG/	-ta	.	8B\	.	.	8d/	.	.	8g/	.	.	.	.	.	.	.	.	.	.	.	.	.	.	.	.	.	.	.	.
.	.	.	.	8r	.	.	8r	.	.	8r	.	.	8r	.	.	.	.	.	.	.	.	.	.	.	.	.	.	.	.	.	.	.	.
=48	=48	=48	=48	=48	=48	=48	=48	=48	=48	=48	=48	=48	=48	=48	=48	=48	=48	=48	=48	=48	=48	=48	=48	=48	=48	=48	=48	=48	=48	=48	=48	=48	=48
2ryy	.	2ryy	.	4AA/	A-	.	4A\	.	.	4e/	.	.	4cc\	.	.	.	2ryy	.	2ryy	2ryy	.	2ryy	.	2ryy	.	2ryy	.	2ryy	.	2ryy	.	2ryy	.
.	.	.	.	(8A\L	-by	.	4A\	.	.	4e/	.	.	4cc#X\	.	.	.	.	.	.	.	.	.	.	.	.	.	.	.	.	.	.	.	.
!	!	!	!	!LO:TX:a:t=P:problem:łuk kończy się na kresce taktowej	!	!	!	!	!	!	!	!	!	!	!	!	!	!	!	!	!	!	!	!	!	!	!	!	!	!	!	!	!
.	.	.	.	8G\J)	.	.	.	.	.	.	.	.	.	.	.	.	.	.	.	.	.	.	.	.	.	.	.	.	.	.	.	.	.
!!LO:PB:g=original
=49	=49	=49	=49	=49	=49	=49	=49	=49	=49	=49	=49	=49	=49	=49	=49	=49	=49	=49	=49	=49	=49	=49	=49	=49	=49	=49	=49	=49	=49	=49	=49	=49	=49
!LO:TX:a:t=P:problem:w źródle na 2 stronach brak jednolinii (t. 49-61)	!	!	!	!	!	!	!	!	!	!	!	!	!	!	!	!	!	!	!	!	!	!	!	!	!	!	!	!	!	!	!	!	!
2ryy	.	2ryy	.	4F\	.	.	4A\	.	.	4f/	.	.	(<4dd\	lud	.	.	2ryy	.	2ryy	2ryy	.	2ryy	.	2ryy	.	2ryy	.	2ryy	.	2ryy	.	2ryy	.
.	.	.	.	.	.	.	.	.	.	.	.	.	16qqff/)	.	.	.	.	.	.	.	.	.	.	.	.	.	.	.	.	.	.	.	.
.	.	.	.	4D\	.	.	4d\	.	.	4a/	.	.	4ff\	Twój	.	.	.	.	.	.	.	.	.	.	.	.	.	.	.	.	.	.	.
=50	=50	=50	=50	=50	=50	=50	=50	=50	=50	=50	=50	=50	=50	=50	=50	=50	=50	=50	=50	=50	=50	=50	=50	=50	=50	=50	=50	=50	=50	=50	=50	=50	=50
!	!	!	!	!	!	!	!	!	!	!	!	!	!	!	!	!LO:DY:rj	!	!	!	!	!	!	!	!	!	!	!	!	!	!	!	!	!
2ryy	.	2ryy	.	(8G\L	.	.	4d\	.	.	4g/	.	.	4b\	żył	.	f	2ryy	.	2ryy	2ryy	.	2ryy	.	2ryy	.	2ryy	.	2ryy	.	2ryy	.	2ryy	.
.	.	.	.	8F\J)	.	.	.	.	.	.	.	.	.	.	.	.	.	.	.	.	.	.	.	.	.	.	.	.	.	.	.	.	.
.	.	.	.	8E\L	.	.	4c\	.	.	4g/	.	.	(8cc\L	bez-	.	.	.	.	.	.	.	.	.	.	.	.	.	.	.	.	.	.	.
.	.	.	.	8C\J	.	.	.	.	.	.	.	.	8ee\J)	.	.	.	.	.	.	.	.	.	.	.	.	.	.	.	.	.	.	.	.
=51	=51	=51	=51	=51	=51	=51	=51	=51	=51	=51	=51	=51	=51	=51	=51	=51	=51	=51	=51	=51	=51	=51	=51	=51	=51	=51	=51	=51	=51	=51	=51	=51	=51
2ryy	.	2ryy	.	4G\	.	.	4c\	.	.	4g/	.	.	4ee\	-pie-	.	.	2ryy	.	2ryy	2ryy	.	2ryy	.	2ryy	.	2ryy	.	2ryy	.	2ryy	.	2ryy	.
.	.	.	.	8G\	.	.	8B\	.	.	8g/	.	.	8dd\	-czny	.	.	.	.	.	.	.	.	.	.	.	.	.	.	.	.	.	.	.
.	.	.	.	8r	.	.	8r	.	.	8r	.	.	8r	.	.	.	.	.	.	.	.	.	.	.	.	.	.	.	.	.	.	.	.
=52	=52	=52	=52	=52	=52	=52	=52	=52	=52	=52	=52	=52	=52	=52	=52	=52	=52	=52	=52	=52	=52	=52	=52	=52	=52	=52	=52	=52	=52	=52	=52	=52	=52
2ryy	.	2ryy	.	4F#X\	.	.	4A\	.	.	4a/	.	.	4dd\	U-	.	.	2ryy	.	2ryy	2ryy	.	2ryy	.	2ryy	.	2ryy	.	2ryy	.	2ryy	.	2ryy	.
.	.	.	.	8F#\	.	.	8d\	.	.	8a/	.	.	8a\	-twierdź	.	.	.	.	.	.	.	.	.	.	.	.	.	.	.	.	.	.	.
.	.	.	.	8Fn\	.	.	8d\	.	.	8g/	.	.	8b\	w_nas	.	.	.	.	.	.	.	.	.	.	.	.	.	.	.	.	.	.	.
=53	=53	=53	=53	=53	=53	=53	=53	=53	=53	=53	=53	=53	=53	=53	=53	=53	=53	=53	=53	=53	=53	=53	=53	=53	=53	=53	=53	=53	=53	=53	=53	=53	=53
2ryy	.	2ryy	.	4E\	.	.	4c\	.	.	4g/	.	.	4cc\	wia-	.	.	2ryy	.	2ryy	2ryy	.	2ryy	.	2ryy	.	2ryy	.	2ryy	.	2ryy	.	2ryy	.
.	.	.	.	8E\	.	.	8c\	.	.	8g/	.	.	8g/	-rę	.	.	.	.	.	.	.	.	.	.	.	.	.	.	.	.	.	.	.
.	.	.	.	8G\	.	.	8G/	.	.	8g/	.	.	8g/	i	.	.	.	.	.	.	.	.	.	.	.	.	.	.	.	.	.	.	.
=54	=54	=54	=54	=54	=54	=54	=54	=54	=54	=54	=54	=54	=54	=54	=54	=54	=54	=54	=54	=54	=54	=54	=54	=54	=54	=54	=54	=54	=54	=54	=54	=54	=54
2ryy	.	2ryy	.	(8.G\L	.	.	(8.G/L	.	.	(8.g/L	.	.	(8.g/L	mi-	.	.	2ryy	.	2ryy	2ryy	.	2ryy	.	2ryy	.	2ryy	.	2ryy	.	2ryy	.	2ryy	.
.	.	.	.	32A\LL	.	.	32A/LL	.	.	32a/LL	.	.	32a/LL	.	.	.	.	.	.	.	.	.	.	.	.	.	.	.	.	.	.	.	.
.	.	.	.	32G\JJJ)	.	.	32G/JJJ)	.	.	32g/JJJ)	.	.	32g/JJJ)	.	.	.	.	.	.	.	.	.	.	.	.	.	.	.	.	.	.	.	.
.	.	.	.	8E\	.	.	8E/	.	.	8e/	.	.	8e/	-łość	.	.	.	.	.	.	.	.	.	.	.	.	.	.	.	.	.	.	.
.	.	.	.	8C\	.	.	8C/	.	.	8c/	.	.	8c/	dla	.	.	.	.	.	.	.	.	.	.	.	.	.	.	.	.	.	.	.
=55	=55	=55	=55	=55	=55	=55	=55	=55	=55	=55	=55	=55	=55	=55	=55	=55	=55	=55	=55	=55	=55	=55	=55	=55	=55	=55	=55	=55	=55	=55	=55	=55	=55
2ryy	.	2ryy	.	4G\	.	.	4G/	.	.	4g/	.	.	4g/	bra-	.	.	2ryy	.	2ryy	2ryy	.	2ryy	.	2ryy	.	2ryy	.	2ryy	.	2ryy	.	2ryy	.
.	.	.	.	8G\	.	.	8G/	.	.	8g/	.	.	8g/	-ta	.	.	.	.	.	.	.	.	.	.	.	.	.	.	.	.	.	.	.
.	.	.	.	8r	.	.	8r	.	.	8r	.	.	8r	.	.	.	.	.	.	.	.	.	.	.	.	.	.	.	.	.	.	.	.
!!LO:PB:g=original
=56	=56	=56	=56	=56	=56	=56	=56	=56	=56	=56	=56	=56	=56	=56	=56	=56	=56	=56	=56	=56	=56	=56	=56	=56	=56	=56	=56	=56	=56	=56	=56	=56	=56
2ryy	.	2ryy	.	4A\	Daj	.	4A/	.	.	4e/	.	.	4cc\	.	.	.	2ryy	.	2ryy	2ryy	.	2ryy	.	2ryy	.	2ryy	.	2ryy	.	2ryy	.	2ryy	.
.	.	.	.	4G\	nam	.	4A/	.	.	4c/	.	.	4e/	.	.	.	.	.	.	.	.	.	.	.	.	.	.	.	.	.	.	.	.
=57	=57	=57	=57	=57	=57	=57	=57	=57	=57	=57	=57	=57	=57	=57	=57	=57	=57	=57	=57	=57	=57	=57	=57	=57	=57	=57	=57	=57	=57	=57	=57	=57	=57
2ryy	.	2ryy	.	4F\	po-	.	4A/	.	.	4d/	.	.	(8.d/L	.	.	.	2ryy	.	2ryy	2ryy	.	2ryy	.	2ryy	.	2ryy	.	2ryy	.	2ryy	.	2ryy	.
.	.	.	.	.	.	.	.	.	.	.	.	.	16a/Jk)	.	.	.	.	.	.	.	.	.	.	.	.	.	.	.	.	.	.	.	.
.	.	.	.	4F\	-kój	.	4A/	.	.	4d/	.	.	4a/	.	.	.	.	.	.	.	.	.	.	.	.	.	.	.	.	.	.	.	.
=58	=58	=58	=58	=58	=58	=58	=58	=58	=58	=58	=58	=58	=58	=58	=58	=58	=58	=58	=58	=58	=58	=58	=58	=58	=58	=58	=58	=58	=58	=58	=58	=58	=58
*	*	*^	*	*	*	*	*	*	*	*	*	*	*	*	*	*	*	*	*	*	*	*	*	*	*	*^	*	*^	*	*	*	*	*
*	*	*tremolo	*	*	*	*	*	*	*	*	*	*	*	*	*	*	*	*tremolo	*	*tremolo	*tremolo	*	*	*	*	*	*	*	*	*	*	*	*	*	*	*
2ryy	.	16GG/LL	8GG\L	.	4.G\	po-	.	(4c\	.	.	(4e/	.	.	(4g/	.	.	<	16c\LL	.	16e/LL	16g/LL	<	2r	.	4G\	.	(4ee/	4cc\	.	(4dd/	4a\	.	4ee\	.	(4gg\	<
.	.	16GG/	.	.	.	.	.	.	.	.	.	.	.	.	.	.	.	16c\	.	16e/	16g/	.	.	.	.	.	.	.	.	.	.	.	.	.	.	.
.	.	16G/	8G\J	<	.	.	.	.	.	.	.	.	.	.	.	.	.	16c\	.	16e/	16g/	.	.	.	.	.	.	.	.	.	.	.	.	.	.	.
.	.	16G/JJ	.	.	.	.	.	.	.	.	.	.	.	.	.	.	.	16c\JJ	.	16e/JJ	16g/JJ	.	.	.	.	.	.	.	.	.	.	.	.	.	.	.
.	.	16GG/LL	8GG\L	.	.	.	.	8e-X\)	.	.	8f#X/)	.	.	8a/)	.	.	.	16e-X\LL	.	16f#X/LL	16a/LL	.	.	.	4G\ 4GG\	.	8ee-X/L	8cc\L	.	8ee-X/L	8a\L	.	8ff#X\L	.	8aa\L	.
.	.	16GG/	.	.	.	.	.	.	.	.	.	.	.	.	.	.	.	16e-\	.	16f#/	16a/	.	.	.	.	.	.	.	.	.	.	.	.	.	.	.
.	.	16G/	8G\J	.	8G\	-kój	.	8d\	.	.	8fn/	.	.	8b/	.	.	[	16d\	.	16fn/	16b/	.	.	.	.	.	8dd/J	8g\J	.	8dd/J	8b\J	.	8ffn\J	.	8bb\J)	[
.	.	16G/JJ	.	[[	.	.	.	.	.	.	.	.	.	.	.	.	.	16d\JJ	.	16fn/JJ	16b/JJ	[[	.	.	.	.	.	.	.	.	.	.	.	.	.	.
*	*	*Xtremolo	*	*	*	*	*	*	*	*	*	*	*	*	*	*	*	*	*	*	*	*	*	*	*	*	*	*	*	*	*	*	*	*	*	*
*	*	*	*	*	*	*	*	*	*	*	*	*	*	*	*	*	*	*	*	*	*	*	*	*	*	*	*v	*v	*	*	*	*	*	*	*	*
=59	=59	=59	=59	=59	=59	=59	=59	=59	=59	=59	=59	=59	=59	=59	=59	=59	=59	=59	=59	=59	=59	=59	=59	=59	=59	=59	=59	=59	=59	=59	=59	=59	=59	=59	=59
!	!	!	!	!	!	!	!	!	!	!	!	!	!	!	!	!	!	!	!	!	!	!	!	!	!	!	!	!	!LO:TX:a:t=P:problem:łuk kończy się na kresce taktowej	!	!	!	!	!	!
2ryy	.	16C/LL	4C\	>	4C/	wie-	.	4B\	.	.	4fn/	.	.	4dd\	.	.	>	16d\LL 16B\	.	16fn/LL	16dd\LL	>	(>4dd/ 4g/	.	[4G\ [>4C\	.	4dd/ 4g/)	.	4dd/)	4b\	.	(4ff\	.	(4ddd\	>
.	.	16G/	.	.	.	.	.	.	.	.	.	.	.	.	.	.	.	16d\ 16B\	.	16f/	16dd\	.	.	.	.	.	.	.	.	.	.	.	.	.	.
.	.	16B/	.	.	.	.	.	.	.	.	.	.	.	.	.	.	.	16d\ 16B\	.	16f/	16dd\	.	.	.	.	.	.	.	.	.	.	.	.	.	.
.	.	16G/JJ	.	.	.	.	.	.	.	.	.	.	.	.	.	.	.	16d\JJ 16B\	.	16f/JJ	16dd\JJ	.	.	.	.	.	.	.	.	.	.	.	.	.	.
*	*	*	*	*	*	*	*	*	*	*	*	*	*	*	*	*	*	*Xtremolo	*	*Xtremolo	*Xtremolo	*	*	*	*	*	*	*	*	*	*	*	*	*	*
.	.	8c/	8C\	]	8C/	-czny.	.	8c\	.	.	8e/	.	.	8cc\	.	.	]	8c\	.	8e/	8cc\	]	8cc/ 8e/)	.	8G\] 8C\]	.	8cc/ 8e/	.	16cc/	16cc\	.	8ee\)	.	16ccc\)	]
.	.	.	.	.	.	.	.	.	.	.	.	.	.	.	.	.	.	.	.	.	.	.	.	.	.	.	.	.	(<8qdd/	.	.	.	.	(<8qddd/	.
.	.	.	.	.	.	.	.	.	.	.	.	.	.	.	.	.	.	.	.	.	.	.	.	.	.	.	.	.	(>16cc/LL)	16ryy	.	.	.	(16ccc\LL)	.
.	.	8rc	8r	.	8r	.	.	8r	.	.	8r	.	.	8r	.	.	.	8r	.	8r	8r	.	8r	.	8r	.	8r	.	16bn'</	8r	.	8r	.	16bbn'\	.
.	.	.	.	.	.	.	.	.	.	.	.	.	.	.	.	.	.	.	.	.	.	.	.	.	.	.	.	.	16cc'</JJ	.	.	.	.	16ccc'\JJ	.
=60	=60	=60	=60	=60	=60	=60	=60	=60	=60	=60	=60	=60	=60	=60	=60	=60	=60	=60	=60	=60	=60	=60	=60	=60	=60	=60	=60	=60	=60	=60	=60	=60	=60	=60	=60
*	*	*	*	*	*	*	*	*	*	*	*	*	*	*	*	*	*	*	*	*	*	*	*	*	*	*	*^	*	*	*	*	*	*	*	*
!	!	!	!	!	!	!	!	!LO:TX:a:t=P:problem:takty 60-61 po poprawkach głównego skryptora (wymazane nuty)	!	!	!	!	!	!	!	!	!	!	!	!	!	!	!	!	!	!	!	!	!	!	!	!	!	!	!	!
2ryy	.	4r	2rGG	.	2r	.	.	2ryy	.	.	2ryy	.	.	2ryy	.	.	.	4r	.	4r	4r	.	2r	.	4r	.	4r	4r	.	4.gg/)	4re	.	4r	.	4.ggg\)	.
.	.	8r	.	.	.	.	.	.	.	.	.	.	.	.	.	.	.	8r	.	8r	8r	.	.	.	8r	.	8r	8r	.	.	8r	.	8r	.	.	.
.	.	(8c#X/	.	.	.	.	.	.	.	.	.	.	.	.	.	.	.	(8e\ 8c#X\	.	(8g/	(8b-X^>/	.	.	.	(>(<8G\ 8C#\^<	.	(8ee/	(8cc#X^\	.	(8b-X/	(8g^\	.	(8ee\|	.	(8bb-X\|	.
=61	=61	=61	=61	=61	=61	=61	=61	=61	=61	=61	=61	=61	=61	=61	=61	=61	=61	=61	=61	=61	=61	=61	=61	=61	=61	=61	=61	=61	=61	=61	=61	=61	=61	=61	=61	=61
*	*	*	*	*	*	*	*	*	*	*	*	*	*	*	*	*	*	*	*	*	*	*	*	*	*^	*	*	*	*	*	*	*	*	*	*	*
2ryy	.	8d/)	2rGG	.	2r	.	.	2ryy	.	.	2ryy	.	.	2ryy	.	.	.	8f\ 8d\)	.	8f/)	8a/)	.	2r	.	8F/)	8D\)	.	8ff/)	8dd\)	.	8a/)	8f\)	.	8ff\)	.	8aa\)	.
!	!	!	!	!	!	!	!	!	!	!	!	!	!	!	!	!	!	!	!	!	!	!	!	!	!	!LO:TX:a:t=P:problem:w rękopisie pauzy drugiej warstwy w nieprawidłowych miejscach	!	!	!	!	!	!	!	!	!	!	!
.	.	8r	.	.	.	.	.	.	.	.	.	.	.	.	.	.	.	8r	.	8r	8r	.	.	.	8rc	8r	.	8r	8r	.	8r	8ryy	.	8r	.	8r	.
.	.	16r	.	.	.	.	.	.	.	.	.	.	.	.	.	.	.	4r	.	4r	4r	.	.	.	16rc	4r	.	4r	4r	.	4r	4ryy	.	16r	.	4r	.
.	.	(<8qe/	.	.	.	.	.	.	.	.	.	.	.	.	.	.	.	.	.	.	.	.	.	.	(>8qe/	.	.	.	.	.	.	.	.	(>8qee/	.	.	.
!	!	!	!	!	!	!	!	!	!	!	!	!	!	!	!	!	!	!	!	!	!	!	!	!	!LO:TX:a:t=P:problem:łuk kończy się za kreską taktową	!	!	!	!	!	!	!	!	!	!	!	!
.	.	(16d/LL)	.	.	.	.	.	.	.	.	.	.	.	.	.	.	.	.	.	.	.	.	.	.	(>16d/LL)	.	.	.	.	.	.	.	.	(>16dd/LL)	.	.	.
!	!	!	!	!	!	!	!	!	!	!	!	!	!	!	!	!	!	!	!	!	!	!	!	!	!LO:TX:a:t=P:problem:oznaczenie staccato tej i następnej nuty nachodzi na łuk	!	!	!	!	!	!	!	!	!	!	!	!
.	.	16c#X/	.	.	.	.	.	.	.	.	.	.	.	.	.	.	.	.	.	.	.	.	.	.	16c#X'>/	.	.	.	.	.	.	.	.	16cc#X'>/	.	.	.
!	!	!LO:TX:a:t=P:problem:łuk kończy się za kreską taktową	!	!	!	!	!	!	!	!	!	!	!	!	!	!	!	!	!	!	!	!	!	!	!	!	!	!	!	!	!	!	!	!	!	!	!
.	.	16d/JJ)	.	.	.	.	.	.	.	.	.	.	.	.	.	.	.	.	.	.	.	.	.	.	16d'>/JJ)	.	.	.	.	.	.	.	.	16dd'>/JJ	.	.	.
*	*	*v	*v	*	*	*	*	*	*	*	*	*	*	*	*	*	*	*	*	*	*	*	*	*	*	*	*	*	*	*	*	*	*	*	*	*	*
*	*	*	*	*	*	*	*	*	*	*	*	*	*	*	*	*	*	*	*	*	*	*	*	*	*	*	*v	*v	*	*	*	*	*	*	*	*
*	*	*	*	*	*	*	*	*	*	*	*	*	*	*	*	*	*	*	*	*	*	*	*	*	*	*	*	*	*v	*v	*	*	*	*	*
!!LO:PB:g=original
=62	=62	=62	=62	=62	=62	=62	=62	=62	=62	=62	=62	=62	=62	=62	=62	=62	=62	=62	=62	=62	=62	=62	=62	=62	=62	=62	=62	=62	=62	=62	=62	=62	=62	=62
*	*	*^	*	*	*	*	*	*	*	*	*	*	*	*	*	*	*	*	*	*	*	*	*	*	*	*	*	*	*	*	*	*	*	*
!	!	!	!	!	!	!	!	!	!	!	!	!	!	!	!	!	!	!	!	!	!	!	!	!	!	!	!	!	!	!	!	!LO:TX:a:t=P:problem:zakończenie łuku od (>16dd/LL) znajduje się na poprzedniej stronie, za kreską taktową	!	!	!
!	!	!	!	!	!	!	!	!	!	!	!	!	!	!	!	!	!	!	!	!	!	!	!	!	!	!	!	!	!	!	!	!	!	!LO:TX:a:t=P:problem:takty 62-63 (oraz pierwsze takty Dona nobis) zapisane dwa razy, na dwóch kartkach. Pierwsza kartka (skan 040) inna niż pozostałe, jaśniejsza, być może zapisana inną ręką. Druga kartka (skan 041) taka, jak pozostałe. W tym pliku transkrypcja taktów z drugiej kartki (skan 041).	!
2r	.	4.f/	4r	.	2r	.	.	2r	.	.	2r	.	.	2r	.	.	.	4r	.	4r	4r	.	2r	.	(4.f/	4r	.	4r	.	4r	.	(>4.ff/)	.	2r	.
.	.	.	8r	.	.	.	.	.	.	.	.	.	.	.	.	.	.	8r	.	8r	8r	.	.	.	.	8rC	.	8r	.	8r	.	.	.	.	.
!	!	!	!	!LO:DY:rj	!	!	!	!	!	!	!	!	!	!	!	!	!	!	!	!	!	!	!	!	!	!	!	!	!	!	!	!	!	!	!
.	.	(8B/	8G\	p	.	.	.	.	.	.	.	.	.	.	.	.	.	(8d\	.	(8f/	(8b/	.	.	.	8B/)	(>8GG\	.	8dd^/ 8g/	.	8f/ 8d/	.	8b/)	.	.	.
=63	=63	=63	=63	=63	=63	=63	=63	=63	=63	=63	=63	=63	=63	=63	=63	=63	=63	=63	=63	=63	=63	=63	=63	=63	=63	=63	=63	=63	=63	=63	=63	=63	=63	=63	=63
4r	.	8c/)	8A\	.	2r	.	.	2r	.	.	2r	.	.	2r	.	.	.	8c\)	.	8e/)	8cc/)	.	4r	.	8c/	8AA\)	.	8cc/ 8e/	.	8e/ 8c/	.	8cc/	.	4r	.
.	.	8r	8r	.	.	.	.	.	.	.	.	.	.	.	.	.	.	8r	.	8r	8r	.	.	.	8rc	8rEE	.	8r	.	8r	.	8r	.	.	.
!LO:SIC:s=4CT/	!	!	!LO:TX:a:t=P:problem:łuk nad nutami do pierwszej nuty w kolejnej części	!	!	!	!	!	!	!	!	!	!	!	!	!	!	!LO:TX:a:t=P:problem:łuk pod nutami do pierwszej nuty w kolejnej części	!	!	!	!	!	!	!	!	!	!	!	!	!	!	!	!	!
4Ret</	.	4A-X^</	4A-\	sf	.	.	.	.	.	.	.	.	.	.	.	.	.	4A-X^/	.	4c^/	4f#X^/	sf	4cc/ 4c/	.	4A-X/	4AA-X\^	sf	4cc^/ 4c/	.	4f#X^/ 4c/	sf	4cc^/	sf	4ff#X^<\	sf
*	*	*v	*v	*	*	*	*	*	*	*	*	*	*	*	*	*	*	*	*	*	*	*	*	*	*v	*v	*	*	*	*	*	*	*	*	*
==	==	==	==	==	==	==	==	==	==	==	==	==	==	==	==	==	==	==	==	==	==	==	==	==	==	==	==	==	==	==	==	==	==
*-	*-	*-	*-	*-	*-	*-	*-	*-	*-	*-	*-	*-	*-	*-	*-	*-	*-	*-	*-	*-	*-	*-	*-	*-	*-	*-	*-	*-	*-	*-	*-	*-	*-
!!!system-decoration: (p1,p2,p3,p4,p5,p6,{g1},p8),{g2},(p13,p14)
!!!RDF**kern: < = below
!!!RDF**kern: > = above
!!!RDF**kern: | = vertical stroke
!!!ENC: Mateusz Solarz
!!!END: 2021-04-09
!!!ENC: Zofia Niedbalska
!!!END: 2022-09-14!!!YEC: Copyright 2022 Narodowy Instytut Fryderyka Chopina (https://polishscores.org)
!!!YEM: License CC-BY-4.0 (https://creativecommons.org/licenses/by/4.0)
